!!!!SEGMENT: pl-wtm--r-65-n_noskowski-zygmunt--kantata.krn
!!!cenid: 18xx:2110
!!!COM: Noskowski, Zygmunt
!!!COM-rismID: pe106604
!!!CDT: 1846/05/02-1909/07/23
!!!CNT: Polish
!!!OTL: Kantata
!!!PDT: 1888
!!!AGN: Sacred; Cantata
!!!SMS-siglum: PL-Wtm
!!!SMS-shelfmark: R 65/N
!!!SMS-shelfwork: W
!!!SMS-variant:
!!!SMS-altvar:
!!!NIFC-rismSourceID: 1001101427
!!!NIFC-rismChildID: 1001101427
!!!NIFC-islandoraID:
!!!URL-pdf-islandora:
!!!URL-scan:
!!!IIIF:
!!!ONB-nifc:
!!!AIN: 1 bass 1 piano 1 soprn 1 tenor
!!!OMD: Tempo di Polacca Maestoso
!!!key: E-
**kern	**kern	**dynam	**kern	**text	**mod-text	**text	**mod-text	**dynam	**mod-dynam	**kern	**text	**mod-text	**text	**mod-text	**dynam	**mod-dynam	**kern	**text	**mod-text	**text	**mod-text	**dynam	**mod-dynam
*part4	*part4	*part4	*part3	*	*part1	*	*part1	*part3	*part3	*part2	*part2	*part1	*part2	*part1	*part2	*part2	*part1	*part1	*part1	*part1	*part1	*part1	*part1
*staff5	*staff4	*	*staff3	*	*staff1	*	*staff1	*	*	*staff2	*staff2	*staff1	*staff2	*staff1	*	*	*staff1	*staff1	*staff1	*staff1	*staff1	*	*
*Ipiano	*Ipiano	*	*Ibass	*	*	*	*	*	*	*Itenor	*	*	*	*	*	*	*Isoprn	*	*	*	*	*	*
*ICklav	*ICklav	*	*ICvox	*	*	*	*	*	*	*ICvox	*	*	*	*	*	*	*ICvox	*	*	*	*	*	*
*I"[Fortepian]	*I"[Fortepian]	*	*I"Bas	*	*	*	*	*	*	*I"Tenor	*	*	*	*	*	*	*I"Sopran Alt	*	*	*	*	*	*
*mI"Pianoforte	*mI"Pianoforte	*	*mI"Bassi	*	*	*	*	*	*	*mI"Tenori	*	*	*	*	*	*	*I"Soprani e Alti	*	*	*	*	*	*
*I'	*I'	*	*I'	*	*	*	*	*	*	*I'T	*	*	*	*	*	*	*I'S e A	*	*	*	*	*	*
*mI'pf	*mI'pf	*	*mI'B	*	*	*	*	*	*	*mI'T	*	*	*	*	*	*	*mI'S e A	*	*	*	*	*	*
*clefF4	*clefG2	*	*clefF4	*	*	*	*	*	*	*clefG2	*	*	*	*	*	*	*clefG2	*	*	*	*	*	*
*	*	*	*	*	*	*	*	*	*	*mclefGv2	*	*	*	*	*	*	*	*	*	*	*	*	*
!	!	!	!	!	!	!	!	!	!	!LO:MO:mod=*null:null	!	!	!	!	!	!	!	!	!	!	!	!	!
*	*	*	*	*	*	*	*	*	*	*ITrd7c12	*	*	*	*	*	*	*	*	*	*	*	*	*
*k[b-e-a-]	*k[b-e-a-]	*	*k[b-e-a-]	*	*	*	*	*	*	*k[b-e-a-]	*	*	*	*	*	*	*k[b-e-a-]	*	*	*	*	*	*
*E-:	*E-:	*	*E-:	*	*	*	*	*	*	*E-:	*	*	*	*	*	*	*E-:	*	*	*	*	*	*
*M3/4	*M3/4	*	*M3/4	*	*	*	*	*	*	*M3/4	*	*	*	*	*	*	*M3/4	*	*	*	*	*	*
*>[A,B,B,A,C]	*>[A,B,B,A,C]	*	*>[A,B,B,A,C]	*	*	*	*	*	*	*>[A,B,B,A,C]	*	*	*	*	*	*	*>[A,B,B,A,C]	*	*	*	*	*	*
!!LO:TX:t=P:problem:4\ 8\ 16\ right or left:global
=1	=1	=1	=1	=1	=1	=1	=1	=1	=1	=1	=1	=1	=1	=1	=1	=1	=1	=1	=1	=1	=1	=1	=1
*>A	*>A	*	*>A	*	*	*	*	*	*	*>A	*	*	*	*	*	*	*>A	*	*	*	*	*	*
!	!	!	!	!	!	!	!	!LO:MO:null:mod=*above	!LO:MO:null:mod=*above	!	!	!	!	!	!	!	!	!	!	!	!	!	!
*	*	*	*	*	*	*	*	*	*	*	*	*	*	*	*	*	*	*	*	*	*	*	*
!	!	!	!	!	!	!	!	!	!	!	!	!	!	!	!	!	!LO:TX:t=[segno]	!	!	!	!	!	!
4.E- 4.EE-/	4.ee- 4.e-/	ff	2.ryy	.	.	.	.	.	.	2.ryy	.	.	.	.	.	.	2.ryy	.	.	.	.	.	.
!	!LO:TX:b:i:t=pomposo	!	!	!	!	!	!	!	!	!	!	!	!	!	!	!	!	!	!	!	!	!	!
8CL 8CC/	8ccL 8c/	.	.	.	.	.	.	.	.	.	.	.	.	.	.	.	.	.	.	.	.	.	.
8C 8CC/	8cc 8c/	.	.	.	.	.	.	.	.	.	.	.	.	.	.	.	.	.	.	.	.	.	.
8DJ 8DD/	8ddJ 8d/	.	.	.	.	.	.	.	.	.	.	.	.	.	.	.	.	.	.	.	.	.	.
=2	=2	=2	=2	=2	=2	=2	=2	=2	=2	=2	=2	=2	=2	=2	=2	=2	=2	=2	=2	=2	=2	=2	=2
8E-L 8EE-/	8ee-L 8e-/	.	2.ryy	.	.	.	.	.	.	2.ryy	.	.	.	.	.	.	2.ryy	.	.	.	.	.	.
8C 8CC/	8cc 8c/	.	.	.	.	.	.	.	.	.	.	.	.	.	.	.	.	.	.	.	.	.	.
8G 8GG/	8gg 8g/	.	.	.	.	.	.	.	.	.	.	.	.	.	.	.	.	.	.	.	.	.	.
8F 8FF/	8ff 8f/	.	.	.	.	.	.	.	.	.	.	.	.	.	.	.	.	.	.	.	.	.	.
8E- 8EE-/	8ee- 8e-/	.	.	.	.	.	.	.	.	.	.	.	.	.	.	.	.	.	.	.	.	.	.
8GJ 8GG/	8ggJ 8g/	.	.	.	.	.	.	.	.	.	.	.	.	.	.	.	.	.	.	.	.	.	.
=3	=3	=3	=3	=3	=3	=3	=3	=3	=3	=3	=3	=3	=3	=3	=3	=3	=3	=3	=3	=3	=3	=3	=3
8GGL 8GGG^</	8bb-L 8ee- 8b-^>\	.	2.ryy	.	.	.	.	.	.	2.ryy	.	.	.	.	.	.	2.ryy	.	.	.	.	.	.
8AA- 8AAA-^</	8ccc 8ee- 8cc^>\	.	.	.	.	.	.	.	.	.	.	.	.	.	.	.	.	.	.	.	.	.	.
8C 8CC^</	8aa- 8ee- 8a-^>\	.	.	.	.	.	.	.	.	.	.	.	.	.	.	.	.	.	.	.	.	.	.
8DJ 8DD^</	8ff 8b- 8a- 8f^>\	.	.	.	.	.	.	.	.	.	.	.	.	.	.	.	.	.	.	.	.	.	.
8E-L 8EE-^>\	8ee- 8b- 8g 8e-^>\	.	.	.	.	.	.	.	.	.	.	.	.	.	.	.	.	.	.	.	.	.	.
8A-J 8AA-^>\	8ccJ 8a- 8e- 8c^>\	.	.	.	.	.	.	.	.	.	.	.	.	.	.	.	.	.	.	.	.	.	.
=4	=4	=4	=4	=4	=4	=4	=4	=4	=4	=4	=4	=4	=4	=4	=4	=4	=4	=4	=4	=4	=4	=4	=4
8FL 8FF^</	8ddL 8b- 8a- 8d^</	.	2.ryy	.	.	.	.	.	.	2.ryy	.	.	.	.	.	.	2.ryy	.	.	.	.	.	.
8E-J 8EE-^</	8ee-J 8b- 8g 8e-^</	.	.	.	.	.	.	.	.	.	.	.	.	.	.	.	.	.	.	.	.	.	.
!LO:TX:t=P:problem=mixed beam	!	!	!	!	!	!	!	!	!	!	!	!	!	!	!	!	!	!	!	!	!	!	!
8BB-L 8BBB-^</	8ffL 8dd 8b- 8f^</	.	.	.	.	.	.	.	.	.	.	.	.	.	.	.	.	.	.	.	.	.	.
!LO:TUP:a	!LO:TUP:a	!	!	!	!	!	!	!	!	!	!	!	!	!	!	!	!	!	!	!	!	!	!
24B-\L	24b-/L	.	.	.	.	.	.	.	.	.	.	.	.	.	.	.	.	.	.	.	.	.	.
24B-\	24b-/	.	.	.	.	.	.	.	.	.	.	.	.	.	.	.	.	.	.	.	.	.	.
24B-\JJ	24b-/JJ	.	.	.	.	.	.	.	.	.	.	.	.	.	.	.	.	.	.	.	.	.	.
8B-\	8b-\	.	.	.	.	.	.	.	.	.	.	.	.	.	.	.	.	.	.	.	.	.	.
8r	8r	.	.	.	.	.	.	.	.	.	.	.	.	.	.	.	.	.	.	.	.	.	.
=5	=5	=5	=5	=5	=5	=5	=5	=5	=5	=5	=5	=5	=5	=5	=5	=5	=5	=5	=5	=5	=5	=5	=5
[>4GG [<4GGG/	[>4gg [>4dd [>4bn [<4g\	.	2.ryy	.	.	.	.	.	.	2.ryy	.	.	.	.	.	.	2.ryy	.	.	.	.	.	.
8.GG]L 8.GGG/]	8.gg]L 8.dd] 8.bn] 8.g\]	.	.	.	.	.	.	.	.	.	.	.	.	.	.	.	.	.	.	.	.	.	.
16CJk 16CC/	16ee-Jk 16cc 16g 16e-\	.	.	.	.	.	.	.	.	.	.	.	.	.	.	.	.	.	.	.	.	.	.
8.CL 8.CC/	8.ee-L 8.cc 8.g 8.e-\	.	.	.	.	.	.	.	.	.	.	.	.	.	.	.	.	.	.	.	.	.	.
16GGJk 16GGG/	16ggJk 16dd 16bn 16g\	.	.	.	.	.	.	.	.	.	.	.	.	.	.	.	.	.	.	.	.	.	.
!!LO:LB:g=original
=6	=6	=6	=6	=6	=6	=6	=6	=6	=6	=6	=6	=6	=6	=6	=6	=6	=6	=6	=6	=6	=6	=6	=6
8.GGL 8.GGG/	8.ggL 8.dd 8.bn 8.g\	.	2.r	.	.	.	.	.	.	2.r	.	.	.	.	.	.	2.r	.	.	.	.	.	.
16CJk 16CC/	16ee-Jk 16cc 16g 16e-\	.	.	.	.	.	.	.	.	.	.	.	.	.	.	.	.	.	.	.	.	.	.
8.CL 8.CC/	8.ee-L 8.cc 8.g 8.e-\	.	.	.	.	.	.	.	.	.	.	.	.	.	.	.	.	.	.	.	.	.	.
16FFJk 16FFF/	16aa-Jk 16ee- 16cc 16a-\	.	.	.	.	.	.	.	.	.	.	.	.	.	.	.	.	.	.	.	.	.	.
8.FFL 8.FFF/	8.aa-L 8.ee- 8.cc 8.a-\	.	.	.	.	.	.	.	.	.	.	.	.	.	.	.	.	.	.	.	.	.	.
16AA-Jk 16AAA-/	16ffJk 16dd 16b-X 16f\	.	.	.	.	.	.	.	.	.	.	.	.	.	.	.	.	.	.	.	.	.	.
=7	=7	=7	=7	=7	=7	=7	=7	=7	=7	=7	=7	=7	=7	=7	=7	=7	=7	=7	=7	=7	=7	=7	=7
8.AA-L 8.AAA-/	8.ffL 8.dd 8.b- 8.f\	.	2.r	.	.	.	.	.	.	2.r	.	.	.	.	.	.	2.r	.	.	.	.	.	.
16GGJk 16GGG/	16bb-Jk 16ee- 16b-\	.	.	.	.	.	.	.	.	.	.	.	.	.	.	.	.	.	.	.	.	.	.
8.GGL 8.GGG/	8.bb-L 8.ee- 8.b-\	.	.	.	.	.	.	.	.	.	.	.	.	.	.	.	.	.	.	.	.	.	.
16CJk 16CC/	16ee-Jk 16cc 16g 16e-\	.	.	.	.	.	.	.	.	.	.	.	.	.	.	.	.	.	.	.	.	.	.
8.CL 8.CC/	8.ee-L 8.cc 8.g 8.e-\	.	.	.	.	.	.	.	.	.	.	.	.	.	.	.	.	.	.	.	.	.	.
16BB-Jk 16BBB-/	16ffJk 16dd 16b- 16f\	.	.	.	.	.	.	.	.	.	.	.	.	.	.	.	.	.	.	.	.	.	.
=8	=8	=8	=8	=8	=8	=8	=8	=8	=8	=8	=8	=8	=8	=8	=8	=8	=8	=8	=8	=8	=8	=8	=8
*	*	*	*	*	*	*	*	*	*	*	*	*	*	*	*	*	*^	*	*	*	*	*	*
4BB- 4BBB-/	8ffL 8dd 8b- 8f\	.	4r	.	.	.	.	.	.	4r	.	.	.	.	.	.	4r	4rcyy	.	.	.	.	.	.
.	8ggJ 8g\	.	.	.	.	.	.	.	.	.	.	.	.	.	.	.	.	.	.	.	.	.	.	.
!LO:SIC:s=8E- 8EE-/L	!	!	!	!	!	!	!	!	!	!	!	!	!	!	!	!	!	!	!	!	!	!	!	!
8E- 8EE-/	8ee-L 8b- 8g 8e-/	.	4r	.	.	.	.	.	.	4r	.	.	.	.	.	.	4r	4rcyy	.	.	.	.	.	.
!LO:MO:mod=*null:null	!	!	!	!	!	!	!	!	!	!	!	!	!	!	!	!	!	!	!	!	!	!	!	!
*Xtuplet	*	*	*	*	*	*	*	*	*	*	*	*	*	*	*	*	*	*	*	*	*	*	*	*
!LO:SIC:s=24B-\L	!LO:TUP:b	!	!	!	!	!	!	!	!	!	!	!	!	!	!	!	!	!	!	!	!	!	!	!
24B-\LL	24b-/L	.	.	.	.	.	.	.	.	.	.	.	.	.	.	.	.	.	.	.	.	.	.	.
24B-\	24b-/	.	.	.	.	.	.	.	.	.	.	.	.	.	.	.	.	.	.	.	.	.	.	.
24B-\JJ	24b-/JJ	.	.	.	.	.	.	.	.	.	.	.	.	.	.	.	.	.	.	.	.	.	.	.
!	!	!	!LO:TX:t=P:global:problem=dynamika na pięciolinii	!	!	!	!	!LO:DY:a:rj	!LO:DY:a:rj	!LO:TX:t=P:global:problem=dynamika na pięciolinii	!	!	!	!	!LO:DY:b:rj	!LO:DY:b:rj	!	!LO:TX:t=P:global:problem=dynamika na pięciolinii	!	!	!	!	!LO:DY:rj	!LO:DY:rj
8B-\L	8b-/L	.	8B-\	.	Sła-	.	.	f	f	8B-\	.	Sła-	.	.	f	f	8b-/	8b-\	Sła-	Sła-	.	.	f	f
8B-\J	8b-/J	.	8B-\	.	-wa	.	.	.	.	8B-\	.	-wa	.	.	.	.	8b-/	8b-\	-wa	-wa	.	.	.	.
=9	=9	=9	=9	=9	=9	=9	=9	=9	=9	=9	=9	=9	=9	=9	=9	=9	=9	=9	=9	=9	=9	=9	=9	=9
8.c-X\L	8.cc-X\L	.	2.c-X\	.	To-	.	.	.	.	2.c-X\	.	To-	.	.	.	.	2.cc-X/	2.cc-\	To-	To-	.	.	.	.
16c-Jk 16C-X\	16ee-Jk 16cc- 16g-X 16e-\	.	.	.	.	.	.	.	.	.	.	.	.	.	.	.	.	.	.	.	.	.	.	.
8.c-L 8.C-\	8.ee-L 8.cc- 8.g- 8.e-\	.	.	.	.	.	.	.	.	.	.	.	.	.	.	.	.	.	.	.	.	.	.	.
16E-Jk 16EE-\	16gg-XJk 16cc-X 16g-\	.	.	.	.	.	.	.	.	.	.	.	.	.	.	.	.	.	.	.	.	.	.	.
8.F-XL 8.FF-X/	8.aa-L 8.cc- 8.a-\	.	.	.	.	.	.	.	.	.	.	.	.	.	.	.	.	.	.	.	.	.	.	.
16E-Jk 16EE-/	16ccc-XJk 16gg- 16cc-\	.	.	.	.	.	.	.	.	.	.	.	.	.	.	.	.	.	.	.	.	.	.	.
=10	=10	=10	=10	=10	=10	=10	=10	=10	=10	=10	=10	=10	=10	=10	=10	=10	=10	=10	=10	=10	=10	=10	=10	=10
8.E-L 8.EE-/	8.ccc-XL 8.gg-X 8.cc-X\	.	4c-X\	.	-bie,	.	.	.	.	4e-\	.	-bie,	.	.	.	.	4ee- 4cc-X\	4rcyy	-bie	-bie,	.	.	.	.
16C-XJk 16CC-X/	16eee-Jk 16ccc- 16gg- 16ee-\	.	.	.	.	.	.	.	.	.	.	.	.	.	.	.	.	.	.	.	.	.	.	.
8C- 8CC-/	8eee- 8ccc- 8gg- 8ee-\	.	4r	.	.	.	.	.	.	4r	.	.	.	.	.	.	4r	4rcyy	.	.	.	.	.	.
8r	8r	.	.	.	.	.	.	.	.	.	.	.	.	.	.	.	.	.	.	.	.	.	.	.
8B-\L	8b-\L	.	8B-\	.	sła-	.	.	.	.	8B-\	.	sła-	.	.	.	.	8b-/	8b-\	Sła-	sła-	.	.	.	.
8B-\J	8b-\J	.	8B-\	.	-wa	.	.	.	.	8B-\	.	-wa	.	.	.	.	8b-/	8b-\	-wa	-wa	.	.	.	.
!!LO:LB:g=original
=11	=11	=11	=11	=11	=11	=11	=11	=11	=11	=11	=11	=11	=11	=11	=11	=11	=11	=11	=11	=11	=11	=11	=11	=11
8.c-X\L	8.cc-X\L	.	2.c-X\	.	To-	.	.	.	.	2.c-X\	.	To-	.	.	.	.	2.cc-X/	2.cc-\	To-	To-	.	.	.	.
16A-Jk 16AA-\	16ee-Jk 16cc- 16a- 16e-\	.	.	.	.	.	.	.	.	.	.	.	.	.	.	.	.	.	.	.	.	.	.	.
8.A-L 8.AA-\	8.ee-L 8.cc- 8.a- 8.e-\	.	.	.	.	.	.	.	.	.	.	.	.	.	.	.	.	.	.	.	.	.	.	.
16c-Jk 16C-X\	16aa-Jk 16ee- 16a-\	.	.	.	.	.	.	.	.	.	.	.	.	.	.	.	.	.	.	.	.	.	.	.
8.c-L 8.C-\	8.aa-L 8.ee- 8.a-\	.	.	.	.	.	.	.	.	.	.	.	.	.	.	.	.	.	.	.	.	.	.	.
16A-Jk 16AA-\	16ccc-XJk 16aa- 16ee- 16cc-\	.	.	.	.	.	.	.	.	.	.	.	.	.	.	.	.	.	.	.	.	.	.	.
*	*	*	*	*	*	*	*	*	*	*	*	*	*	*	*	*	*v	*v	*	*	*	*	*	*
=12	=12	=12	=12	=12	=12	=12	=12	=12	=12	=12	=12	=12	=12	=12	=12	=12	=12	=12	=12	=12	=12	=12	=12
8.A-L 8.AA-/	8.ccc-XL 8.aa- 8.ee- 8.cc-X\	.	4c-X\	.	-bie,	.	.	.	.	4e-\	.	-bie,	.	.	.	.	4ee- 4cc-X\	-bie	-bie,	.	.	.	.
16AA-Jk 16AAA-/	16eee-Jk 16ccc- 16aa- 16ee-\	.	.	.	.	.	.	.	.	.	.	.	.	.	.	.	.	.	.	.	.	.	.
8AA- 8AAA-/	8eee- 8ccc- 8aa- 8ee-\	.	4r	.	.	.	.	.	.	4r	.	.	.	.	.	.	4r	.	.	.	.	.	.
8r	8r	.	.	.	.	.	.	.	.	.	.	.	.	.	.	.	.	.	.	.	.	.	.
*	*	*	*	*	*	*	*	*	*	*	*	*	*	*	*	*	*^	*	*	*	*	*	*
8B-\L	8b-\L	.	8B-\	.	sła-	.	.	.	.	8B-\	.	sła-	.	.	.	.	8b-/	8b-\	Sła-	sła-	.	.	.	.
8B-\J	8b-\J	.	8B-\	.	-wa	.	.	.	.	8B-\	.	-wa	.	.	.	.	8b-/	8b-\	-wa	-wa	.	.	.	.
=13	=13	=13	=13	=13	=13	=13	=13	=13	=13	=13	=13	=13	=13	=13	=13	=13	=13	=13	=13	=13	=13	=13	=13	=13
8Bn\L	8bn\L	.	(>2.Bn\	.	To-	.	.	.	.	(>2.Bn\	.	To-	.	.	.	.	(>2.bn/	(<2.bn\	To-	To-	.	.	.	.
16r	16r	.	.	.	.	.	.	.	.	.	.	.	.	.	.	.	.	.	.	.	.	.	.	.
16EnyJk 16EEn\	16gg#XJk 16een 16b 16g#X\	.	.	.	.	.	.	.	.	.	.	.	.	.	.	.	.	.	.	.	.	.	.	.
8EL 8EE\	8gg#L 8ee 8b 8g#\	.	.	.	.	.	.	.	.	.	.	.	.	.	.	.	.	.	.	.	.	.	.	.
16r	16r	.	.	.	.	.	.	.	.	.	.	.	.	.	.	.	.	.	.	.	.	.	.	.
16enJk 16B 16G#X\	16bbnJk 16gg# 16ee 16b\	.	.	.	.	.	.	.	.	.	.	.	.	.	.	.	.	.	.	.	.	.	.	.
8eL 8B 8G#\	8bbL 8gg# 8ee 8b\	.	.	.	.	.	.	.	.	.	.	.	.	.	.	.	.	.	.	.	.	.	.	.
16r	16r	.	.	.	.	.	.	.	.	.	.	.	.	.	.	.	.	.	.	.	.	.	.	.
16EJk 16EE\	16eee-Jk 16bb 16gg# 16ee\	.	.	.	.	.	.	.	.	.	.	.	.	.	.	.	.	.	.	.	.	.	.	.
=14	=14	=14	=14	=14	=14	=14	=14	=14	=14	=14	=14	=14	=14	=14	=14	=14	=14	=14	=14	=14	=14	=14	=14	=14
8CnL 8CCn/	8eeenL 8cccn 8ggn 8een\	.	2.c\)	.	.	.	.	.	.	2.c\)	.	.	.	.	.	.	2.cc/)	2.cc\)	.	.	.	.	.	.
16r	16r	.	.	.	.	.	.	.	.	.	.	.	.	.	.	.	.	.	.	.	.	.	.	.
16CJk 16CC/	16cccJk 16gg 16ee 16cc\	.	.	.	.	.	.	.	.	.	.	.	.	.	.	.	.	.	.	.	.	.	.	.
8CL 8CC/	8cccL 8gg 8ee 8cc\	.	.	.	.	.	.	.	.	.	.	.	.	.	.	.	.	.	.	.	.	.	.	.
16r	16r	.	.	.	.	.	.	.	.	.	.	.	.	.	.	.	.	.	.	.	.	.	.	.
16cJk 16Gn 16En/	16ggJk 16ee 16cc 16g\	.	.	.	.	.	.	.	.	.	.	.	.	.	.	.	.	.	.	.	.	.	.	.
8cL 8G 8E\	8ggL 8ee 8cc 8g\	.	.	.	.	.	.	.	.	.	.	.	.	.	.	.	.	.	.	.	.	.	.	.
16r	16r	.	.	.	.	.	.	.	.	.	.	.	.	.	.	.	.	.	.	.	.	.	.	.
16CJk 16CC\	16eeJk 16cc 16g 16en\	.	.	.	.	.	.	.	.	.	.	.	.	.	.	.	.	.	.	.	.	.	.	.
!!LO:LB:g=original
=15	=15	=15	=15	=15	=15	=15	=15	=15	=15	=15	=15	=15	=15	=15	=15	=15	=15	=15	=15	=15	=15	=15	=15	=15
!LO:TX:t=P:problem=mixed beam	!	!	!	!	!	!	!	!	!	!	!	!	!	!	!	!	!	!	!	!	!	!	!	!
8GGL 8GGG/	8ddL 8bn 8g 8d/	.	[>2.d\	.	-bie!	.	.	.	.	[>2.d\	.	-bie!	.	.	.	.	[>2.dd/	[<2.dd\	-bie!	-bie!	.	.	.	.
16r	16r	.	.	.	.	.	.	.	.	.	.	.	.	.	.	.	.	.	.	.	.	.	.	.
16dJk 16Bn 16G\	16ggJk 16dd 16b 16g/	.	.	.	.	.	.	.	.	.	.	.	.	.	.	.	.	.	.	.	.	.	.	.
8dL 8B 8G\	8ggL 8dd 8b 8g\	.	.	.	.	.	.	.	.	.	.	.	.	.	.	.	.	.	.	.	.	.	.	.
16r	16r	.	.	.	.	.	.	.	.	.	.	.	.	.	.	.	.	.	.	.	.	.	.	.
16dJk 16B 16G\	16bbnJk 16gg 16dd 16b\	.	.	.	.	.	.	.	.	.	.	.	.	.	.	.	.	.	.	.	.	.	.	.
!LO:TX:t=P:problem=mixed beam	!	!	!	!	!	!	!	!	!	!	!	!	!	!	!	!	!	!	!	!	!	!	!	!
8dL 8B 8G\	8bbL 8gg 8dd 8b\	.	.	.	.	.	.	.	.	.	.	.	.	.	.	.	.	.	.	.	.	.	.	.
16r	16r	.	.	.	.	.	.	.	.	.	.	.	.	.	.	.	.	.	.	.	.	.	.	.
16GGJk 16GGG/	16dddJk 16bb 16gg 16dd\	.	.	.	.	.	.	.	.	.	.	.	.	.	.	.	.	.	.	.	.	.	.	.
=16	=16	=16	=16	=16	=16	=16	=16	=16	=16	=16	=16	=16	=16	=16	=16	=16	=16	=16	=16	=16	=16	=16	=16	=16
8BB-XL 8BBB-X\	8dddL 8bb-X 8aa-X 8dd\	.	2d\]	.	.	.	.	.	.	2d\]	.	.	.	.	.	.	2dd/]	2dd\]	.	.	.	.	.	.
16r	16r	.	.	.	.	.	.	.	.	.	.	.	.	.	.	.	.	.	.	.	.	.	.	.
16dJk 16B- 16A- 16F\	16bb-Jk 16ff 16dd 16b-\	.	.	.	.	.	.	.	.	.	.	.	.	.	.	.	.	.	.	.	.	.	.	.
8d 8B- 8A- 8F\	8bb- 8ff 8dd 8b-\	.	.	.	.	.	.	.	.	.	.	.	.	.	.	.	.	.	.	.	.	.	.	.
8r	8r	.	.	.	.	.	.	.	.	.	.	.	.	.	.	.	.	.	.	.	.	.	.	.
8c\L	8cccL 8cc\	.	8c\	.	Sła-	.	.	.	.	8c\	.	Sła-	.	.	.	.	8cc/	8cc\	Sła-	Sła-	.	.	.	.
8dJ 8B-\	8dddJ 8bb- 8dd\	.	8B-\	.	-wa	.	.	.	.	8d\	.	-wa	.	.	.	.	8ryy	8dd\ 8b-	-wa	-wa	.	.	.	.
*	*	*	*	*	*	*	*	*	*	*	*	*	*	*	*	*	*v	*v	*	*	*	*	*	*
=17	=17	=17	=17	=17	=17	=17	=17	=17	=17	=17	=17	=17	=17	=17	=17	=17	=17	=17	=17	=17	=17	=17	=17
8E-L 8EE-\	4.eee- 4.bb- 4.gg 4.ee-\	.	4.E-\	.	To-	.	.	.	.	4.B-\	.	To-	.	.	.	.	4.ee- 4.g\	To-	To-	.	.	.	.
16e-L 16B- 16G\	.	.	.	.	.	.	.	.	.	.	.	.	.	.	.	.	.	.	.	.	.	.	.
16e-JJ 16B- 16G\	.	.	.	.	.	.	.	.	.	.	.	.	.	.	.	.	.	.	.	.	.	.	.
*tremolo	*	*	*	*	*	*	*	*	*	*	*	*	*	*	*	*	*	*	*	*	*	*	*
8e-L 8B- 8G\	.	.	.	.	.	.	.	.	.	.	.	.	.	.	.	.	.	.	.	.	.	.	.
8e-J 8B- 8G\	8ddd 8dd\	.	8E-\	.	-bie!	.	.	.	.	8B-\	.	-bie!	.	.	.	.	8dd 8g\	-bie!	-bie!	.	.	.	.
*Xtremolo	*	*	*	*	*	*	*	*	*	*	*	*	*	*	*	*	*	*	*	*	*	*	*
8e-L 8B- 8G\	8bb-L 8b-\	.	8E-\	.	1. Boś	.	3. Wiecz-	.	.	8e-\	.	1. Boś	.	3. Wiecz-	.	.	8b- 8g/	1. boś	1. Boś	3. wiecz-	3. Wiecz-	.	.
8E-J 8EE-\	8dddJ 8dd\	.	8E-\	.	Ty	.	-na	.	.	8B-\	.	Ty	.	-na	.	.	8dd 8g/	Ty	Ty	-na	-na	.	.
=18	=18	=18	=18	=18	=18	=18	=18	=18	=18	=18	=18	=18	=18	=18	=18	=18	=18	=18	=18	=18	=18	=18	=18
8E-L 8EE-\	8.cccL 8.aa- 8.ee- 8.cc\	.	8.E-\	.	w_cią-	.	sła-	.	.	8.e-\	.	w_cią-	.	sła-	.	.	8.cc 8.a-/	w_cią-	w_cią-	sła-	sła-	.	.
16e-L 16c 16A-\	.	.	.	.	.	.	.	.	.	.	.	.	.	.	.	.	.	.	.	.	.	.	.
16e-JJ 16c 16A-\	16aa-Jk 16a-\	.	16E-\	.	-gu	.	-wa	.	.	16e-\	.	-gu	.	-wa	.	.	16a- 16f/	-gu	-gu	-wa	-wa	.	.
*tremolo	*	*	*	*	*	*	*	*	*	*	*	*	*	*	*	*	*	*	*	*	*	*	*
8e-L 8B- 8G\	4.bb- 4.b-\	.	4.E-\	.	lat	.	nasz	.	.	4.e-\	.	lat	.	nasz	.	.	4.b- 4.g/	Lat	lat	Nasz	nasz	.	.
8e-J 8B- 8G\	.	.	.	.	.	.	.	.	.	.	.	.	.	.	.	.	.	.	.	.	.	.	.
*Xtremolo	*	*	*	*	*	*	*	*	*	*	*	*	*	*	*	*	*	*	*	*	*	*	*
8e-L 8B- 8G\	.	.	.	.	.	.	.	.	.	.	.	.	.	.	.	.	.	.	.	.	.	.	.
8E-J 8EE-\	8gg 8ee- 8b- 8g\	.	8E-\	.	czter-	.	Ce-	.	.	8B-\	.	czter-	.	Ce-	.	.	8g 8e-/	czter-	czter-	Ce-	Ce-	.	.
!!LO:PB:g=original
=19	=19	=19	=19	=19	=19	=19	=19	=19	=19	=19	=19	=19	=19	=19	=19	=19	=19	=19	=19	=19	=19	=19	=19
*	*	*	*	*	*	*	*	*	*	*	*	*	*	*	*	*	*^	*	*	*	*	*	*
8DL 8DD\	4.bb- 4.ff 4.b-\	.	4.D\	.	-dzie-	.	-sa-	.	.	4.B-\	.	-dzie-	.	-sa-	.	.	4.b- 4.f/	4.rcyy	-dzie-	-dzie-	-sa-	-sa-	.	.
16fL 16B- 16A-\	.	.	.	.	.	.	.	.	.	.	.	.	.	.	.	.	.	.	.	.	.	.	.	.
16fJJ 16B- 16A-\	.	.	.	.	.	.	.	.	.	.	.	.	.	.	.	.	.	.	.	.	.	.	.	.
8f 8B- 8A-\	.	.	.	.	.	.	.	.	.	.	.	.	.	.	.	.	.	.	.	.	.	.	.	.
8r	8ffL 8f\	.	8D\	.	-stu	.	-rzu	.	.	8B-\	.	-stu	.	-rzu	.	.	8f/	8f\	-stu	-stu	-rzu	-rzu	.	.
4BB- 4BBB-/	8aa- 8dd 8a-\	.	8BB-/	.	pa-	.	wszech-	.	.	8B-\	.	pa-	.	wszech-	.	.	8a- 8d/	4rcyy	pa-	pa-	wszech-	wszech-	.	.
.	8ggJ 8g\	.	8BB-/	.	-no-	.	-po-	.	.	8B-\	.	-no-	.	-po-	.	.	8g 8d/	.	-no-	-no-	-po-	-po-	.	.
=20	=20	=20	=20	=20	=20	=20	=20	=20	=20	=20	=20	=20	=20	=20	=20	=20	=20	=20	=20	=20	=20	=20	=20	=20
!	!	!	!	!	!	!	!	!	!	!	!	!	!	!	!	!	!LO:TX:t=P:problem=8. i 4 jako osobne nuty	!	!	!	!	!	!	!
4E- 4EE-/	8.ee-L 8.g\	.	4E-\	.	-wa-	.	-tęż-	.	.	(<8.G/L	.	-wa-	.	-tęż-	.	.	(>8.e-/L	4e-\	-wa-	-wa-	-tęż-	-tęż-	.	.
.	16ffJk 16ee- 16a-\	.	.	.	.	.	.	.	.	16A-/Jk)	.	.	.	.	.	.	16f/Jk)	.	.	.	.	.	.	.
4E- 4EE-/	8ggL 8ee- 8b-\	.	4E-\	.	-nia	.	-ny!	.	.	4B-\	.	-nia	.	-ny!	.	.	4g/	4e-\	-nia	-nia	-ny	-ny!	.	.
.	16dd\L	.	.	.	.	.	.	.	.	.	.	.	.	.	.	.	.	.	.	.	.	.	.	.
.	16ee-\JJ	.	.	.	.	.	.	.	.	.	.	.	.	.	.	.	.	.	.	.	.	.	.	.
4r	16g\LL	.	4r	.	.	.	.	.	.	4r	.	.	.	.	.	.	4r	4rcyy	.	.	.	.	.	.
.	16b-\	.	.	.	.	.	.	.	.	.	.	.	.	.	.	.	.	.	.	.	.	.	.	.
.	16ee-\	.	.	.	.	.	.	.	.	.	.	.	.	.	.	.	.	.	.	.	.	.	.	.
.	16gg\JJ	.	.	.	.	.	.	.	.	.	.	.	.	.	.	.	.	.	.	.	.	.	.	.
=21	=21	=21	=21	=21	=21	=21	=21	=21	=21	=21	=21	=21	=21	=21	=21	=21	=21	=21	=21	=21	=21	=21	=21	=21
8A-L 8AA-\	16ff\LL	.	8.A-\	.	był	.	Ta-	.	.	8.c\	.	był	.	Ta-	.	.	8.f/	8.f\	Był	był	Ta-	Ta-	.	.
.	16f\	.	.	.	.	.	.	.	.	.	.	.	.	.	.	.	.	.	.	.	.	.	.	.
8fJ 8c 8A-\	16a-\	.	.	.	.	.	.	.	.	.	.	.	.	.	.	.	.	.	.	.	.	.	.	.
.	16cc\JJ	.	16A-\	.	na-	.	-kiem	.	.	16c\	.	na-	.	-kiem	.	.	16f/	16f\	na-	na-	-kiem	-kiem	.	.
8FL 8FF\	16ff\LL	.	4.F\	.	-ro-	.	e-	.	.	4.c\	.	-ro-	.	e-	.	.	4.a- 4.f/	2rcyy	-ro-	-ro-	e-	e-	.	.
.	16cc\	.	.	.	.	.	.	.	.	.	.	.	.	.	.	.	.	.	.	.	.	.	.	.
16fL 16c 16A-\	16ff\	.	.	.	.	.	.	.	.	.	.	.	.	.	.	.	.	.	.	.	.	.	.	.
16fJJ 16c 16A-\	16aa-\JJ	.	.	.	.	.	.	.	.	.	.	.	.	.	.	.	.	.	.	.	.	.	.	.
*tremolo	*	*	*	*	*	*	*	*	*	*	*	*	*	*	*	*	*	*	*	*	*	*	*	*
8fL 8c 8A-\	16ccc\LL	.	.	.	.	.	.	.	.	.	.	.	.	.	.	.	.	.	.	.	.	.	.	.
.	16aa-\	.	.	.	.	.	.	.	.	.	.	.	.	.	.	.	.	.	.	.	.	.	.	.
8fJ 8c 8A-\	16ff\	.	8F\	.	-dom	.	-chem	.	.	8A-/	.	-dom	.	-chem	.	.	8cc 8f/	.	-dom	-dom	-chem	-chem	.	.
.	16cc\JJ	.	.	.	.	.	.	.	.	.	.	.	.	.	.	.	.	.	.	.	.	.	.	.
*Xtremolo	*	*	*	*	*	*	*	*	*	*	*	*	*	*	*	*	*	*	*	*	*	*	*	*
*	*	*	*	*	*	*	*	*	*	*	*	*	*	*	*	*	*v	*v	*	*	*	*	*	*
=22	=22	=22	=22	=22	=22	=22	=22	=22	=22	=22	=22	=22	=22	=22	=22	=22	=22	=22	=22	=22	=22	=22	=22
4D 4DD/	16bbn\LL	.	8D\	.	Two-	.	w_świat	.	.	8G/	.	Two-	.	w_świat	.	.	8bn 8f/	Two-	Two-	w_świat	w_świat	.	.
.	16bn\	.	.	.	.	.	.	.	.	.	.	.	.	.	.	.	.	.	.	.	.	.	.
.	16ff\	.	8D\	.	-im	.	sze-	.	.	8G/	.	-im	.	sze-	.	.	8g 8f/	-im	-im	sze-	sze-	.	.
.	16gg\JJ	.	.	.	.	.	.	.	.	.	.	.	.	.	.	.	.	.	.	.	.	.	.
8E-L 8EE-/	8cccL 8gg 8cc\	.	(>8E-\L	.	Oj-	.	-ro-	.	.	(<8G/L	.	Oj-	.	-ro-	.	.	(<8ccL 8g/	Oj-	Oj-	-ro-	-ro-	.	.
8DJ 8DD/	8dddJ 8bbn 8dd\	.	8D\J)	.	.	.	.	.	.	8Bn/J)	.	.	.	.	.	.	8ddJ 8f/)	.	.	.	.	.	.
4C 4CC/	8eee-L 8ccc 8ee-\	.	4C/	.	-cem,	.	-ki	.	.	4c\	.	-cem,	.	-ki	.	.	4ee- 4e-/	-cem	-cem,	-ki	-ki	.	.
.	16ccc\L	.	.	.	.	.	.	.	.	.	.	.	.	.	.	.	.	.	.	.	.	.	.
.	16gg\JJ	.	.	.	.	.	.	.	.	.	.	.	.	.	.	.	.	.	.	.	.	.	.
!!LO:LB:g=original
=23	=23	=23	=23	=23	=23	=23	=23	=23	=23	=23	=23	=23	=23	=23	=23	=23	=23	=23	=23	=23	=23	=23	=23
8FL 8FF\	16aan\LL	.	8.F\	.	był	.	le-	.	.	8.c\	.	był	.	le-	.	.	8.an 8.f/	Był	był	Le-	le-	.	.
.	16an\	.	.	.	.	.	.	.	.	.	.	.	.	.	.	.	.	.	.	.	.	.	.
8fJ 8An\	16cc\	.	.	.	.	.	.	.	.	.	.	.	.	.	.	.	.	.	.	.	.	.	.
.	16ff\JJ	.	16F\	.	ka-	.	-ci	.	.	16c\	.	ka-	.	-ci	.	.	16a 16f/	ka-	ka-	-ci	-ci	.	.
8E-L 8EE-\	16aa\LL	.	4.E-\	.	-pła-	.	głos	.	.	4.An/	.	-pła-	.	głos	.	.	4.cc 4.f/	-pła-	-pła-	głos	głos	.	.
.	16cc\	.	.	.	.	.	.	.	.	.	.	.	.	.	.	.	.	.	.	.	.	.	.
16fL 16A\	16ff\	.	.	.	.	.	.	.	.	.	.	.	.	.	.	.	.	.	.	.	.	.	.
16fJJ 16A\	16aa\JJ	.	.	.	.	.	.	.	.	.	.	.	.	.	.	.	.	.	.	.	.	.	.
8fL 8A\	16ccc\LL	.	.	.	.	.	.	.	.	.	.	.	.	.	.	.	.	.	.	.	.	.	.
.	16aa\	.	.	.	.	.	.	.	.	.	.	.	.	.	.	.	.	.	.	.	.	.	.
8CJ 8CC\	16ee-\	.	8C/	.	-nem	.	na-	.	.	8A/	.	-nem	.	na-	.	.	8ee- 8f/	-nem	-nem	na-	na-	.	.
.	16eee-JJ 16aa\	.	.	.	.	.	.	.	.	.	.	.	.	.	.	.	.	.	.	.	.	.	.
=24	=24	=24	=24	=24	=24	=24	=24	=24	=24	=24	=24	=24	=24	=24	=24	=24	=24	=24	=24	=24	=24	=24	=24
*	*	*	*	*	*	*	*	*	*	*	*	*	*	*	*	*	*^	*	*	*	*	*	*
8BB-L 8BBB-/	8dddL 8bb- 8dd\	.	8BB-/	.	zmar-	.	-ro-	.	.	8B-\	.	zmar-	.	-ro-	.	.	8dd 8f/	4rcyy	Zmar-	zmar-	-ro-	-ro-	.	.
8E-J 8EE-/	8aanJ 8ff 8an\	.	8E-\	.	-twych-	.	-dów	.	.	8c\	.	-twych-	.	-dów	.	.	8an 8f/	.	-twych-	-twych-	-dów	-dów	.	.
8DL 8DD\	16bb-\LL	.	4D/	.	-wsta-	.	męż-	.	.	4B-\	.	-wsta-	.	męż-	.	.	(<8b-/L	4f\	-wsta-	-wsta-	męż-	męż-	.	.
.	16ff\	.	.	.	.	.	.	.	.	.	.	.	.	.	.	.	.	.	.	.	.	.	.	.
8dJ 8B- 8F\	16bb-\	.	.	.	.	.	.	.	.	.	.	.	.	.	.	.	8dd/J)	.	.	.	.	.	.	.
.	16ddd\JJ	.	.	.	.	.	.	.	.	.	.	.	.	.	.	.	.	.	.	.	.	.	.	.
8BB-L 8BBB-/	4fff 4ff\	.	4BB-/	.	-nia!	.	-ny,	.	.	4d\	.	-nia!	.	-ny,	.	.	4ff/	4b-\	-nia!	-nia!	-ny	-ny,	.	.
8dJ 8B- 8F/	.	.	.	.	.	.	.	.	.	.	.	.	.	.	.	.	.	.	.	.	.	.	.	.
*	*	*	*	*	*	*	*	*	*	*	*	*	*	*	*	*	*v	*v	*	*	*	*	*	*
=25	=25	=25	=25	=25	=25	=25	=25	=25	=25	=25	=25	=25	=25	=25	=25	=25	=25	=25	=25	=25	=25	=25	=25
!	!LO:MO:mod=!null:null	!	!	!	!	!	!	!	!	!	!	!	!	!	!	!	!	!	!	!	!	!	!
!	!LO:N:n=2:vis=8	!	!	!	!	!	!	!	!	!	!	!	!	!	!	!	!	!	!	!	!	!	!
4AAn 4AAAn/	8.fffL 8.ccc 8.ff\	.	8.AAn/	.	Był	.	ta-	.	.	8.c\	.	Był	.	ta-	.	.	8.ff 8.f/	Był	Był	Ta-	ta-	.	.
.	16eee-Jk 16ee-\	.	16AA/	.	na-	.	-kiem	.	.	16c\	.	na-	.	-kiem	.	.	16ee- 16f/	na-	na-	-kiem	-kiem	.	.
8BB-L 8BBB-/	8dddL 8bb- 8dd\	.	8BB-/	.	-ro-	.	e-	.	.	8B-\	.	-ro-	.	e-	.	.	8dd 8f/	-ro-	-ro-	e-	e-	.	.
8E-J 8EE-/	8cccJ 8gg 8cc\	.	8E-\	.	-dom	.	-chem	.	.	8G/	.	-dom	.	-chem	.	.	8cc 8g/	-dom	-dom	-chem	-chem	.	.
4D 4DD/	8bb-L 8ff#X 8b-\	.	8D\	.	Two-	.	w_świat	.	.	8d\	.	Two-	.	w_świat	.	.	8b- 8f#X/	Two-	Two-	w_świat	w_świat	.	.
.	8aanJ 8an\	.	8D\	.	-im	.	sze-	.	.	8c\	.	-im	.	sze-	.	.	8an 8f#/	-im	-im	sze-	sze-	.	.
=26	=26	=26	=26	=26	=26	=26	=26	=26	=26	=26	=26	=26	=26	=26	=26	=26	=26	=26	=26	=26	=26	=26	=26
*	*	*	*	*	*	*	*	*	*	*	*	*	*	*	*	*	*^	*	*	*	*	*	*
4G 4GG/	4gg 4dd 4b- 4g\	.	4G\	.	Oj-	.	-ro-	.	.	4B-\	.	Oj-	.	-ro-	.	.	4g/	4g\	Oj-	Oj-	-ro-	-ro-	.	.
4GG 4GGG/	4bb- 4gg 4dd 4b-\	.	4G\	.	-cem,	.	-ki	.	.	4B-\	.	-cem,	.	-ki	.	.	4b- 4d/	2rcyy	-cem	-cem,	-ki	-ki	.	.
8CL 8CC\	8aanL 8an\	.	8C/	.	był	.	le-	.	.	8B-\	.	był	.	le-	.	.	8an 8en/	.	Był	był	Le-	le-	.	.
8B-J 8G\	8ggJ 8een 8g\	.	8C/	.	ka-	.	-ci	.	.	8B-\	.	ka-	.	-ci	.	.	8g 8e/	.	ka-	ka-	-ci	-ci	.	.
*	*	*	*	*	*	*	*	*	*	*	*	*	*	*	*	*	*v	*v	*	*	*	*	*	*
!!LO:LB:g=original
=27	=27	=27	=27	=27	=27	=27	=27	=27	=27	=27	=27	=27	=27	=27	=27	=27	=27	=27	=27	=27	=27	=27	=27
4F 4FF/	8ffL 8dd 8f\	.	8F\	.	-pła-	.	głos	.	.	8B-\	.	-pła-	.	głos	.	.	8f 8d/	-pła-	-pła-	głos	głos	.	.
.	8ggJ 8ee-X 8g\	.	8F\	.	-nem	.	na-	.	.	8B-\	.	-nem	.	na-	.	.	8g-X 8e-/	-nem	-nem	na-	na-	.	.
!LO:TX:t=P:problem=mixed beam	!	!	!	!	!	!	!	!	!	!	!	!	!	!	!	!	!	!	!	!	!	!	!
8FFL 8FFF/	4.eee- 4.ee-\	.	4.F\	.	zmar-	.	-ro-	.	.	4.G/	.	zmar-	.	-ro-	.	.	4.ee- 4.e-/	Zmar-	zmar-	-ro-	-ro-	.	.
16e-L 16G\	.	.	.	.	.	.	.	.	.	.	.	.	.	.	.	.	.	.	.	.	.	.	.
16e-JJ 16G\	.	.	.	.	.	.	.	.	.	.	.	.	.	.	.	.	.	.	.	.	.	.	.
8e-L 8G\	.	.	.	.	.	.	.	.	.	.	.	.	.	.	.	.	.	.	.	.	.	.	.
8e-J 8G#X\	8ddd 8dd\	.	8F\	.	-twych-	.	-dów	.	.	8G#X/	.	-twych-	.	-dów	.	.	8dd 8e-/	-twych-	-twych-	-dów	-dów	.	.
=28	=28	=28	=28	=28	=28	=28	=28	=28	=28	=28	=28	=28	=28	=28	=28	=28	=28	=28	=28	=28	=28	=28	=28
*	*	*	*	*	*	*	*	*	*	*	*	*	*	*	*	*	*^	*	*	*	*	*	*
4e- 4An 4F\	8cccL 8cc\	.	4F\	.	-wsta-	.	męż-	.	.	(<8An/L	.	-wsta-	.	męż-	.	.	(<8cc/L	4e-\	-wsta-	-wsta-	męż-	męż-	.	.
.	8aanJ 8an\	>	.	.	.	.	.	.	.	8c/J)	.	.	.	.	.	.	8an/J)	.	.	.	.	.	.	.
8dL 8F 8BB-\	8bb-L 8b-\	.	4BB-/	.	-nia.	.	-ny.	.	.	4B-\	.	-nia.	.	-ny.	.	.	4b- 4d/	2rcyy	-nia	-nia.	-ny.	-ny.	.	.
16B-\L	16b-\L	.	.	.	.	.	.	.	.	.	.	.	.	.	.	.	.	.	.	.	.	.	.	.
16B-\JJ	16b-\JJ	.	.	.	.	.	.	.	.	.	.	.	.	.	.	.	.	.	.	.	.	.	.	.
8B-\L	8b-\L	]	4r	.	.	.	.	.	.	4r	.	.	.	.	.	.	4r	.	.	.	.	.	.	.
8B-\J	8b-\J	.	.	.	.	.	.	.	.	.	.	.	.	.	.	.	.	.	.	.	.	.	.	.
=29||	=29||	=29||	=29||	=29||	=29||	=29||	=29||	=29||	=29||	=29||	=29||	=29||	=29||	=29||	=29||	=29||	=29||	=29||	=29||	=29||	=29||	=29||	=29||	=29||
*	*^	*	*	*	*	*	*	*	*	*	*	*	*	*	*	*	*	*	*	*	*	*	*	*
!	!	!	!LO:DY:rj	!	!	!	!	!	!	!	!	!	!	!	!	!	!	!	!	!	!	!	!	!LO:DY:b:rj	!LO:DY:b:rj
4C-X 4CC-X/	(>8.a-/L	8rc	p	2.r	.	.	.	.	.	.	2.r	.	.	.	.	.	.	8.a-/	8.a-\	W_dniu	W_dniu	A	A	p	p
.	.	8e- 8c-X\	.	.	.	.	.	.	.	.	.	.	.	.	.	.	.	.	.	.	.	.	.	.	.
.	16b-/Jk	.	.	.	.	.	.	.	.	.	.	.	.	.	.	.	.	16b-/	16b-\	ob-	ob-	do	do	.	.
4AA- 4AAA-/	8cc-X/L	8rc	.	.	.	.	.	.	.	.	.	.	.	.	.	.	.	8cc-X/	8cc-\	-ję-	-ję-	Tro-	tro-	.	.
.	8a-/J	8e- 8c-\	.	.	.	.	.	.	.	.	.	.	.	.	.	.	.	8a-/	8a-\	-cia	-cia	-nu	-nu	.	.
4D-X 4DD-X/	8b-/L	8rc	.	.	.	.	.	.	.	.	.	.	.	.	.	.	.	8b-/	8b-\	przez	przez	Przed-	przed-	.	.
.	8f/J	8c-X 8A-\	.	.	.	.	.	.	.	.	.	.	.	.	.	.	.	8f/	8f\	Cię	Cię	-wiecz-	-wiecz-	.	.
=30	=30	=30	=30	=30	=30	=30	=30	=30	=30	=30	=30	=30	=30	=30	=30	=30	=30	=30	=30	=30	=30	=30	=30	=30	=30
!	!	!	!	!	!	!	!	!	!LO:DY:b:rj	!LO:DY:b:rj	!	!	!	!	!	!LO:DY:b:rj	!LO:DY:b:rj	!	!LO:SIC:s=(8g-\L	!	!	!	!	!	!
2GG-X 2GGG-X/	8g-X/L	8rc	.	8.G-X\	.	W dniu	.	A	p	p	8.G-X/	W_dniu	W_dniu	A	A	p	p	(>8g-X/L	8g-\L	Tro-	tro-	-ne-	-ne-	.	.
!	!	!	!	!	!	!	!	!	!	!	!	!	!	!	!	!	!	!	!LO:SIC:s=8e-\J)	!	!	!	!	!	!
.	8e-/J	8B- 8G-X\	.	.	.	.	.	.	.	.	.	.	.	.	.	.	.	8e-/J)	8e-\J	.	.	.	.	.	.
.	.	.	.	16A-\	.	ob-	.	do	.	.	16A-/	ob-	ob-	do	do	.	.	.	.	.	.	.	.	.	.
.	4.d-X/)	8r<	.	8B-\	.	-ję-	.	tro-	.	.	8B-/	-ję-	-ję-	Tro-	tro-	.	.	2d-X/	2d-\	-nu	-nu	-go	-go	.	.
.	.	8B-<L 8F</	.	8F\	.	-cia	.	-nu	.	.	8F/	-cia	-cia	-nu	-nu	.	.	.	.	.	.	.	.	.	.
4GG- 4GGG-\	.	8G-X</	.	8G-\	.	przez	.	przed-	.	.	8G-/	przez	przez	Przed-	przed-	.	.	.	.	.	.	.	.	.	.
.	8d-/	8B-<J 8F</	.	8F\	.	Cię	.	-wiecz-	.	.	8F/	Cię	Cię	-wiecz-	-wiecz-	.	.	.	.	.	.	.	.	.	.
*	*v	*v	*	*	*	*	*	*	*	*	*	*	*	*	*	*	*	*	*	*	*	*	*	*	*
!!LO:LB:g=original
=31	=31	=31	=31	=31	=31	=31	=31	=31	=31	=31	=31	=31	=31	=31	=31	=31	=31	=31	=31	=31	=31	=31	=31	=31
2C-X 2CC-X/	8e-/L	.	(>8G-X\L	.	tro-	.	ne-	.	.	(<8G-X/L	tro-	tro-	-ne-	-ne-	.	.	8e-/	8e-\	Try-	try-	Bło-	bło-	.	.
.	8f 8d-X 8F/	.	8F\J)	.	.	.	.	.	.	8F/J)	.	.	.	.	.	.	8f/	8f\	-sła	-sła	-go-	-go-	.	.
.	8g-X 8e- 8G-X/	.	4E-\	.	-nu	.	-go	.	.	4E-/	-nu	-nu	-go	-go	.	.	8g-X/	8g-\	z_głę-	z_głę-	-sła-	-sła-	.	.
.	8b-J 8g- 8B-/	.	.	.	.	.	.	.	.	.	.	-bi	.	.	.	.	8b-/	8b-\	-bi	-bi	-wieństw	-wieństw	.	.
4AA- 4AAA-/	8cc-XL 8a- 8c-X/	.	8r	.	.	.	.	.	.	8r	.	Twej	.	.	.	.	8cc-X/	8cc-\	Twej	Twej	proś-	proś-	.	.
.	8ee-J 8e-/	.	8E-\	.	Ach!	.	Ach!	.	.	8E-/	Ach!	Ach!	.	Ach!	.	.	8ee-/	8ee-\	mi-	mi-	-ba	-ba	.	.
=32	=32	=32	=32	=32	=32	=32	=32	=32	=32	=32	=32	=32	=32	=32	=32	=32	=32	=32	=32	=32	=32	=32	=32	=32
4D-X 4DD-X/	8dd-X/L	.	(>8F\L	.	Trys-	.	wzla-	.	.	(<8F/L	Trys-	Trys-	.	wzla-	.	.	(>8dd-X/L	(<8dd-\L	-łoś-	-łoś-	wzla-	wzla-	.	.
.	8a-J 8f 8c-X/	.	8c-X\J)	.	.	.	.	.	.	8c-X/J)	.	.	.	.	.	.	8a-/J)	8a-\J)	.	.	.	.	.	.
!	!LO:SIC:v:s=4b- 4g- 4B-/	!	!	!	!	!	!	!	!	!	!	!	!	!	!	!	!	!	!	!	!	!	!	!
4GG-X 4GGG-X/	4b- 4g 4B-/	.	4B-\	.	-ła	.	-ta,	.	.	4B-/	-ła	-ła	.	-ta,	.	.	4b-/	4b-\	-ci	-ci	-ta	-ta,	.	.
!	!	!LO:DY:rj	!	!	!	!	!	!LO:DY:b:rj	!LO:DY:b:rj	!	!	!	!	!	!LO:DY:rj	!LO:DY:rj	!	!	!	!	!	!	!LO:DY:rj	!LO:DY:rj
8An^>\L	8an^</L	f	8An\	.	dla	.	byś	f	f	8An/	.	dla	.	byś	f	f	8an/	8an\	Dla	dla	Byś	byś	f	f
8B-^>\J	8b-^</J	.	8B-\	.	Twych	.	nam	.	.	8B-/	.	Twych	.	nam	.	.	8b-/	8b-\	Twych	Twych	nam	nam	.	.
=33	=33	=33	=33	=33	=33	=33	=33	=33	=33	=33	=33	=33	=33	=33	=33	=33	=33	=33	=33	=33	=33	=33	=33	=33
8B-L 8G-X^>\	8dd-XL 8g-X 8d-X^</	.	4.d-X\	.	lu-	.	Wład-	.	.	4.d-X\	.	lu-	.	Wład-	.	.	4.dd-X/	4.dd-\	lu-	lu-	Wład-	Wład-	.	.
16B-L 16G-\	16dd-L 16g- 16d-/	.	.	.	.	.	.	.	.	.	.	.	.	.	.	.	.	.	.	.	.	.	.	.
16B-JJ 16G-\	16dd-JJ 16g- 16d-/	.	.	.	.	.	.	.	.	.	.	.	.	.	.	.	.	.	.	.	.	.	.	.
8B-L 8G-\	8dd-L 8g- 8d-/	.	.	.	.	.	.	.	.	.	.	.	.	.	.	.	.	.	.	.	.	.	.	.
8An\J	8an/J	.	8An\	.	-dów,	.	-co	.	.	8An/	.	-dów,	.	-co	.	.	8an/	8an\	-dów	-dów,	-co	-co	.	.
8A\L	8a/L	.	8A\	.	Twe-	.	u-	.	.	8A/	.	Twe-	.	u-	.	.	8a/	8a\	Twe-	Twe-	u-	u-	.	.
8B-\J	8b-/J	.	8B-\	.	-go	.	-ko-	.	.	8B-/	.	-go	.	-ko-	.	.	8b-/	8b-\	-go	-go	-ko-	-ko-	.	.
=34	=34	=34	=34	=34	=34	=34	=34	=34	=34	=34	=34	=34	=34	=34	=34	=34	=34	=34	=34	=34	=34	=34	=34	=34
8B-L 8G-X 8C^>\	8ee-L 8b- 8g-X 8e-^</	.	4.E-\	.	pań-	.	-cha-	.	.	4.e-\	.	pań-	.	-cha-	.	.	4.ee-/	4.ee-\	Pań-	pań-	-cha-	-cha-	.	.
16B-L 16G- 16C\	16ee-L 16b- 16g- 16e-/	.	.	.	.	.	.	.	.	.	.	.	.	.	.	.	.	.	.	.	.	.	.	.
16B-JJ 16G- 16C\	16ee-JJ 16b- 16g- 16e-/	.	.	.	.	.	.	.	.	.	.	.	.	.	.	.	.	.	.	.	.	.	.	.
8B-L 8G- 8C\	8ee-L 8b- 8g- 8e-/	.	.	.	.	.	.	.	.	.	.	.	.	.	.	.	.	.	.	.	.	.	.	.
8AnJ 8AAn\	8an/J	.	8An\	.	-stwa	.	-ny	.	.	8An/	.	-stwa	.	-ny	.	.	8an/	8an\	-stwa	-stwa	-ny	-ny	.	.
8AL 8AA\	8a/L	.	8A\	.	zo-	.	prze-	.	.	8A/	.	zo-	.	prze-	.	.	8a/	8a\	Zo-	zo-	Prze-	prze-	.	.
8B-J 8BB-\	8b-/J	.	8B-\	.	-rza	.	-żył	.	.	8B-/	.	-rza	.	-żył	.	.	8b-/	8b-\	-rza	-rza	-żył	-żył	.	.
*	*	*	*	*	*	*	*	*	*	*	*	*	*	*	*	*	*v	*v	*	*	*	*	*	*
!!LO:PB:g=original
=35	=35	=35	=35	=35	=35	=35	=35	=35	=35	=35	=35	=35	=35	=35	=35	=35	=35	=35	=35	=35	=35	=35	=35
2Dn 2BB- 2DDn/	4.ff 4.b- 4.f\	.	4.Dn\	.	swo-	.	jesz-	.	.	4.B-\	.	swo-	.	jesz-	.	.	4.ff 4.f/	swo-	swo-	jesz-	jesz-	.	.
.	8dd 8d/	.	8D\	.	-bód,	.	-cze	.	.	8B-\	.	-bód,	.	-cze	.	.	8dd 8f/	-bód,	-bód,	-cze	-cze	.	.
8GnL 8GGn/	8b-L 8gn 8dn/	.	8Gn\	.	świt	.	dłu-	.	.	8B-\	.	świt	.	dłu-	.	.	8b- 8d/	świt	świt	dłu-	dłu-	.	.
8CJ 8CC/	8ee-J 8b- 8g 8e-/	.	8C/	.	wol-	.	-gie	.	.	8B-\	.	wol-	.	-gie	.	.	8ee- 8g/	wol-	wol-	-gie	-gie	.	.
=36	=36	=36	=36	=36	=36	=36	=36	=36	=36	=36	=36	=36	=36	=36	=36	=36	=36	=36	=36	=36	=36	=36	=36
*	*	*	*	*	*	*	*	*	*	*	*	*	*	*	*	*	*^	*	*	*	*	*	*
4F 4FF/	8gL 8e- 8B-/	.	4F\	.	-noś-	.	la-	.	.	(>8B-\L	.	-noś-	.	la-	.	.	(<8g/L	4e-\	-noś-	-noś-	la-	la-	.	.
.	8anJ 8e- 8c/	.	.	.	.	.	.	.	.	8c\J)	.	.	.	.	.	.	8an/J)	.	.	.	.	.	.	.
4BB- 4BBB-/	8b-L 8d 8B-\	.	8B-\	.	-ci,	.	-ta,	.	.	8B-\	.	-ci,	.	-ta,	.	.	8b-/	8d\	-ci	-ci,	-ta,	-ta,	.	.
.	8bb-J 8b-\	.	8r	.	.	.	.	.	.	8r	.	.	.	.	.	.	8r	8rc	.	.	.	.	.	.
8c\L	8cccL 8cc\	.	8c\	.	Sła-	.	Sła-	.	.	8c\	.	Sła-	.	Sła-	.	.	8cc/	8cc\	Sła-	Sła-	Sła-	Sła-	.	.
8dJ 8B-\	8dddJ 8bb- 8dd\	.	8B-\	.	-wa	.	-wa	.	.	8d\	.	-wa	.	-wa	.	.	8dd 8b-\	8ryy	-wa	-wa	-wa	-wa	.	.
*	*	*	*	*	*	*	*	*	*	*	*	*	*	*	*	*	*v	*v	*	*	*	*	*	*
=37	=37	=37	=37	=37	=37	=37	=37	=37	=37	=37	=37	=37	=37	=37	=37	=37	=37	=37	=37	=37	=37	=37	=37
8E-L 8EE-\	4.eee- 4.bb- 4.gg 4.ee-\	.	4.E-\	.	To-	.	To-	.	.	4.B-\	.	To-	.	To-	.	.	4.ee- 4.g\	To-	To-	To-	To-	.	.
16e-L 16B- 16G\	.	.	.	.	.	.	.	.	.	.	.	.	.	.	.	.	.	.	.	.	.	.	.
16e-JJ 16B- 16G\	.	.	.	.	.	.	.	.	.	.	.	.	.	.	.	.	.	.	.	.	.	.	.
*tremolo	*	*	*	*	*	*	*	*	*	*	*	*	*	*	*	*	*	*	*	*	*	*	*
8e-L 8B- 8G\	.	.	.	.	.	.	.	.	.	.	.	.	.	.	.	.	.	.	.	.	.	.	.
8e-J 8B- 8G\	8dddL 8dd\	.	8E-\	.	-bie!	.	-bie!	.	.	8B-\	.	-bie!	.	-bie!	.	.	8dd 8g\	-bie!	-bie!	-bie!	-bie!	.	.
*Xtremolo	*	*	*	*	*	*	*	*	*	*	*	*	*	*	*	*	*	*	*	*	*	*	*
8e-L 8B- 8G\	8bb- 8b-\	.	8E-\	.	Boś	.	Wiecz-	.	.	8e-\	.	Boś	.	Wiecz-	.	.	8b- 8g/	boś	Boś	wiecz-	Wiecz-	.	.
8E-J 8EE-\	8dddJ 8dd\	.	8E-\	.	Ty	.	-na	.	.	8B-\	.	Ty	.	-na	.	.	8dd 8g/	Ty	Ty	-na	-na	.	.
=38	=38	=38	=38	=38	=38	=38	=38	=38	=38	=38	=38	=38	=38	=38	=38	=38	=38	=38	=38	=38	=38	=38	=38
8E-L 8EE-\	8.cccL 8.aa- 8.ee- 8.cc\	.	8.E-\	.	w_cią-	.	sła-	.	.	8.e-\	.	w_cią-	.	sła-	.	.	8.cc 8.a-/	w_cią-	w_cią-	Sła-	sła-	.	.
16e-L 16c 16A-\	.	.	.	.	.	.	.	.	.	.	.	.	.	.	.	.	.	.	.	.	.	.	.
16e-JJ 16c 16A-\	16aa-Jk 16a-\	.	16E-\	.	-gu	.	-wa,	.	.	16e-\	.	-gu	.	-wa,	.	.	16a- 16e-/	-gu	-gu	-wa	-wa,	.	.
*tremolo	*	*	*	*	*	*	*	*	*	*	*	*	*	*	*	*	*	*	*	*	*	*	*
8e-L 8B- 8G\	4.bb- 4.b-\	.	4.E-\	.	lat	.	nasz	.	.	4.e-\	.	lat	.	nasz	.	.	4.b- 4.g/	Lat	lat	Nasz	nasz	.	.
8e-J 8B- 8G\	.	.	.	.	.	.	.	.	.	.	.	.	.	.	.	.	.	.	.	.	.	.	.
*Xtremolo	*	*	*	*	*	*	*	*	*	*	*	*	*	*	*	*	*	*	*	*	*	*	*
8e-L 8B- 8G\	.	.	.	.	.	.	.	.	.	.	.	.	.	.	.	.	.	.	.	.	.	.	.
8E-J 8EE-\	8gg 8ee- 8b- 8g\	.	8E-\	.	czter-	.	Ce-	.	.	8B-\	.	czter-	.	Ce-	.	.	8g 8e-/	czter-	czter-	Ce-	Ce-	.	.
!!LO:LB:g=original
=39	=39	=39	=39	=39	=39	=39	=39	=39	=39	=39	=39	=39	=39	=39	=39	=39	=39	=39	=39	=39	=39	=39	=39
*	*	*	*	*	*	*	*	*	*	*	*	*	*	*	*	*	*^	*	*	*	*	*	*
8DL 8DD\	4.bb- 4.ff 4.b-\	.	4.D\	.	-dzie-	.	-sa-	.	.	4.B-\	.	-dzie-	.	-sa-	.	.	4.b- 4.f/	4rcyy	-dzie-	-dzie-	-sa-	-sa-	.	.
16fL 16B- 16A-\	.	.	.	.	.	.	.	.	.	.	.	.	.	.	.	.	.	.	.	.	.	.	.	.
16fJJ 16B- 16A-\	.	.	.	.	.	.	.	.	.	.	.	.	.	.	.	.	.	.	.	.	.	.	.	.
8f 8B- 8A-\	.	.	.	.	.	.	.	.	.	.	.	.	.	.	.	.	.	8rcyy	.	.	.	.	.	.
8r	8ffL 8f\	.	8D/	.	-stu	.	-rzu	.	.	8B-\	.	-stu	.	-rzu	.	.	8f/	8f\	-stu	-stu	-rzu	-rzu	.	.
4BB- 4BBB-/	8aa- 8dd 8a-\	.	8BB-/	.	pa-	.	wszech-	.	.	8B-\	.	pa-	.	wszech-	.	.	8a- 8d/	4rcyy	pa-	pa-	wszech-	wszech-	.	.
.	8ggJ 8g\	.	8BB-/	.	-no-	.	-po-	.	.	8B-\	.	-no-	.	-po-	.	.	8g 8d/	.	-no-	-no-	-po-	-po-	.	.
=40	=40	=40	=40	=40	=40	=40	=40	=40	=40	=40	=40	=40	=40	=40	=40	=40	=40	=40	=40	=40	=40	=40	=40	=40
!	!	!	!	!	!	!	!	!	!	!	!	!	!	!	!	!	!LO:TX:t=P:problem=8. i 4 jako osobne nuty	!	!	!	!	!	!	!
4E- 4EE-/	8.ee-L 8.g\	.	4E-\	.	-wa-	.	-tęż-	.	.	(<8.G/L	.	-wa-	.	-tęż-	.	.	(>8.e-/L	4e-\	-wa-	-wa-	-tęż-	-tęż-	.	.
.	16ffJk 16ee- 16a-\	.	.	.	.	.	.	.	.	16A-/Jk)	.	.	.	.	.	.	16f/Jk)	.	.	.	.	.	.	.
!	!	!	!	!	!	!	!	!	!	!	!	!	!	!	!	!	!LO:SIC:s=4g/	!	!	!	!	!	!	!
4E- 4EE-/	8ggL 8ee- 8b-\	>	4E-\	.	-nia	.	-ny!	.	.	4B-\	.	-nia	.	-ny!	.	.	4g 4e-/	4e-\	-nia,	-nia	-ny!	-ny!	.	.
.	16ee-\L	.	.	.	.	.	.	.	.	.	.	.	.	.	.	.	.	.	.	.	.	.	.	.
.	16dd\JJ	]	.	.	.	.	.	.	.	.	.	.	.	.	.	.	.	.	.	.	.	.	.	.
!	!	!LO:DY:rj	!	!	!	!	!	!LO:DY:b:rj	!LO:DY:b:rj	!	!	!	!	!	!LO:DY:b:rj	!LO:DY:b:rj	!	!	!	!	!	!	!LO:DY:b:rj	!LO:DY:b:rj
4e- 4d-X 4G\	16ee-\LL	p	8G\	.	był	.	Ta-	p	p	8d-X\	.	był	.	Ta-	p	p	8e-/	8e-\	Był	był	Ta-	Ta-	p	p
.	16ff\	.	.	.	.	.	.	.	.	.	.	.	.	.	.	.	.	.	.	.	.	.	.	.
.	16ee-\	.	8G\	.	na-	.	-kiem	.	.	8d-\	.	na-	.	-kiem	.	.	8e-/	8e-\	na-	na-	-kiem	-kiem	.	.
.	16dd-X\JJ	.	.	.	.	.	.	.	.	.	.	.	.	.	.	.	.	.	.	.	.	.	.	.
=41	=41	=41	=41	=41	=41	=41	=41	=41	=41	=41	=41	=41	=41	=41	=41	=41	=41	=41	=41	=41	=41	=41	=41	=41
8A-L 8AA-\	16cc\LL	.	4.A-\	.	-ro-	.	e-	.	.	4.c\	.	-ro-	.	e-	.	.	4.cc 4.e-/	4.ryy	-ro-	-ro-	e-	e-	.	.
.	16ee-\	.	.	.	.	.	.	.	.	.	.	.	.	.	.	.	.	.	.	.	.	.	.	.
16e-L 16c 16A-\	16cc\	.	.	.	.	.	.	.	.	.	.	.	.	.	.	.	.	.	.	.	.	.	.	.
16e-JJ 16c 16A-\	16b-\JJ	.	.	.	.	.	.	.	.	.	.	.	.	.	.	.	.	.	.	.	.	.	.	.
4e- 4c 4A-\	4a-/	.	.	.	.	.	.	.	.	.	.	.	.	.	.	.	.	.	.	.	.	.	.	.
.	.	.	8A-\	.	-dom	.	-chem	.	.	8c\	.	-dom	.	-chem	.	.	8a-/	8a-\	-dom	-dom	-chem	-chem	.	.
4r	4r	.	8A-\	.	Two-	.	w świat	.	.	8d-X\	.	Two-	.	w świat	.	.	8b- 8a-/	4rcyy	Two-	Two-	w świat	w świat	.	.
.	.	.	8A-\	.	-im	.	sze-	.	.	8e-\	.	-im	.	sze-	.	.	8cc 8a-/	.	-im	-im	sze-	sze-	.	.
=42	=42	=42	=42	=42	=42	=42	=42	=42	=42	=42	=42	=42	=42	=42	=42	=42	=42	=42	=42	=42	=42	=42	=42	=42
8r	8r	.	(>8F\L	.	Oj-	.	-ro-	.	.	(>8d-X\L	.	Oj-	.	-ro-	.	.	(>8dd-XL 8a-\	2rcyy	Oj-	Oj-	-ro-	-ro-	.	.
8G 8GG/	8ee- 8b- 8e-/	.	8G\J)	.	.	.	.	.	.	8B-\J)	.	.	.	.	.	.	8ee-J 8b-\)	.	.	.	.	.	.	.
4A- 4AA-/	8ccL 8a- 8e-/	.	4A-\	.	-cem,	.	-ki	.	.	4c\	.	-cem,	.	-ki	.	.	4cc 4a-\	.	-cem	-cem,	-ki	-ki	.	.
.	16cc/L	.	.	.	.	.	.	.	.	.	.	.	.	.	.	.	.	.	.	.	.	.	.	.
.	16b-/JJ	.	.	.	.	.	.	.	.	.	.	.	.	.	.	.	.	.	.	.	.	.	.	.
4r	16a-/LL	.	8A-\	.	był	.	le-	.	.	8A-/	.	był	.	le-	.	.	8a-/	8a-\	Był	był	Le-	le-	.	.
.	16g/	.	.	.	.	.	.	.	.	.	.	.	.	.	.	.	.	.	.	.	.	.	.	.
.	16a-/	.	8A-\	.	ka-	.	-ci	.	.	8A-/	.	ka-	.	-ci	.	.	8a-/	8a-\	ka-	ka-	-ci	-ci	.	.
.	16b-/JJ	.	.	.	.	.	.	.	.	.	.	.	.	.	.	.	.	.	.	.	.	.	.	.
!!LO:LB:g=original
=43	=43	=43	=43	=43	=43	=43	=43	=43	=43	=43	=43	=43	=43	=43	=43	=43	=43	=43	=43	=43	=43	=43	=43	=43
8FL 8FF\	16cc\LL	.	4.F\	.	-pła-	.	głos	.	.	4.A-/	.	-pła-	.	głos	.	.	4.cc 4.f/	4.ryy	-pła-	-pła-	głos	głos	.	.
.	16ff\	.	.	.	.	.	.	.	.	.	.	.	.	.	.	.	.	.	.	.	.	.	.	.
16cL 16A- 16F\	16cc\	.	.	.	.	.	.	.	.	.	.	.	.	.	.	.	.	.	.	.	.	.	.	.
16cJJ 16A- 16F\	16a-\JJ	.	.	.	.	.	.	.	.	.	.	.	.	.	.	.	.	.	.	.	.	.	.	.
4c 4A- 4F\	4f/	.	.	.	.	.	.	.	.	.	.	.	.	.	.	.	.	.	.	.	.	.	.	.
.	.	.	8F\	.	-nem	.	na-	.	.	8A-/	.	-nem	.	na-	.	.	8f/	8f\	-nem	-nem	na-	na-	.	.
4r	4r	.	8F\	.	zmar-	.	-ro-	.	.	8B-\	.	zmar-	.	-ro-	.	.	8g 8f/	4rcyy	zmar-	zmar-	-ro-	-ro-	.	.
.	.	.	8F\	.	-twych-	.	-dów	.	.	8c\	.	-twych-	.	-dów	.	.	8a- 8f/	.	-twych-	-twych-	-dów	-dów	.	.
=44	=44	=44	=44	=44	=44	=44	=44	=44	=44	=44	=44	=44	=44	=44	=44	=44	=44	=44	=44	=44	=44	=44	=44	=44
8r	8r	.	(<8D-X/L	.	-wsta-	.	męż-	.	.	(<8B-/L	.	-wsta-	.	męż-	.	.	(<8b-L 8f/	2rcyy	-wsta-	-wsta-	męż-	męż-	.	.
8C 8CC/	8cc 8g 8en/	.	8C/J)	.	.	.	.	.	.	8G/J)	.	.	.	.	.	.	8ccJ 8en/)	.	.	.	.	.	.	.
4F 4FF/	4a- 4f 4c/	.	4F\	.	-nia,	.	-ny.	.	.	4A-/	.	-nia,	.	-ny.	.	.	4a- 4f/	.	-nia	-nia,	-ny	-ny.	.	.
!	!	!LO:DY:rj	!	!	!	!	!	!LO:DY:b:rj	!LO:DY:b:rj	!	!	!	!	!	!LO:DY:b:rj	!LO:DY:b:rj	!	!	!	!	!	!	!LO:DY:b:rj	!LO:DY:b:rj
4r	8.aa-L 8.a-\	f	8.A-\	.	był	.	Sła-	f	f	8.A-/	.	był	.	Sła-	f	f	8.a-/	8.a-\	Był	był	Sła-	Sła-	f	f
.	16ggJk 16g\	.	16G\	.	na-	.	-wa	.	.	16G/	.	na-	.	-wa	.	.	16g/	16g\	na-	na-	-wa	-wa	.	.
=45	=45	=45	=45	=45	=45	=45	=45	=45	=45	=45	=45	=45	=45	=45	=45	=45	=45	=45	=45	=45	=45	=45	=45	=45
8AA-L 8AAA-\	8ggL 8g\	.	8G\	.	-ro-	.	To-	.	.	8G/	.	-ro-	.	To-	.	.	8g/	8g\	-ro-	-ro-	To-	To-	.	.
16dL 16B- 16F 16D\	8een 8en\	.	8En\	.	-dów	.	-bie!	.	.	8En/	.	-dów	.	-bie!	.	.	8en/	8en\	-dów	-dów	-bie	-bie!	.	.
16dJJ 16B- 16F 16D\	.	.	.	.	.	.	.	.	.	.	.	.	.	.	.	.	.	.	.	.	.	.	.	.
4d 4B- 4F 4D\	8ff 8f\	.	(>8F\L	.	Two-	.	Wiecz-	.	.	(<8F/L	.	Two-	.	Wiecz-	.	.	(>8f/L	(<8f\L	Two-	Two-	wiecz-	Wiecz-	.	.
.	8gg 8g\	.	8G\J)	.	.	.	.	.	.	8G/J)	.	.	.	.	.	.	8g/J)	8g\J)	.	.	.	.	.	.
4r	8aa- 8a-\	<	(>8A-\L	.	-ich	.	-na	.	.	(<8A-/L	.	-ich	.	-na	.	.	(>8a-/L	(<8a-\L	-ich	-ich	-na	-na	.	.
.	8bb-J 8b-\	.	8B-\J)	.	.	.	.	.	.	8B-/J)	.	.	.	.	.	.	8b-/J)	8b-\J)	.	.	.	.	.	.
*	*	*	*	*	*	*	*	*	*	*	*	*	*	*	*	*	*v	*v	*	*	*	*	*	*
=46	=46	=46	=46	=46	=46	=46	=46	=46	=46	=46	=46	=46	=46	=46	=46	=46	=46	=46	=46	=46	=46	=46	=46
8AA-L 8AAA-/	8cccL 8cc\	.	(>8c\L	.	Oj-	.	sła-	.	.	(>8c\L	.	Oj-	.	sła-	.	.	(>8cc\L	Oj-	Oj-	Sła-	sła-	.	.
8GGJ 8GGG/	8ddd 8bbn 8dd\	[	8Bn\	.	.	.	.	.	.	8dn\	.	.	.	.	.	.	8ddn 8bn\	.	.	.	.	.	.
8CL 8CC/	8fff 8ccc 8ff\	.	8c\J)	.	.	.	.	.	.	8c\J)	.	.	.	.	.	.	8ffJ 8g\)	.	.	.	.	.	.
8cJ 8G 8E-/	8eee-J 8ee-\	.	8c\	.	-cem,	.	-wa!	.	.	8c\	.	-cem,	.	-wa!	.	.	8ee- 8g\	-cem	-cem,	-wa	-wa!	.	.
8A-L 8AA-/	8cccL 8cc\	.	8A-\	.	był	.	Nasz	.	.	8c\	.	był	.	Nasz	.	.	8cc 8a-/	Był	był	Nasz	Nasz	.	.
8FJ 8FF/	8dddJ 8bb-X 8aa- 8dd\	.	8F\	.	ka-	.	Ce-	.	.	8B-X\	.	ka-	.	Ce-	.	.	8dd 8a-/	ka-	ka-	ce-	Ce-	.	.
!!LO:LB:g=original
=47	=47	=47	=47	=47	=47	=47	=47	=47	=47	=47	=47	=47	=47	=47	=47	=47	=47	=47	=47	=47	=47	=47	=47
8E-L 8EE-/	8eee-L 8bb- 8gg 8ee-\	.	8E-\	.	-pła-	.	-sa-	.	.	8B-\	.	-pła-	.	-sa-	.	.	8ee- 8g/	-pła-	-pła-	-sa-	-sa-	.	.
8D-XJ 8DD-X/	8ggJ 8ee- 8b- 8g\	.	8D-X\	.	-nem,	.	-rzu,	.	.	8B-\	.	-nem,	.	-rzu,	.	.	8g 8e-/	-nem	-nem,	-rzu	-rzu,	.	.
8CL 8CC/	8aa-L 8ee- 8a-\	.	8C/	.	był	.	nasz	.	.	8A-/	.	był	.	nasz	.	.	8a- 8e-/	był	był	nasz	nasz	.	.
8AA-J 8AAA-/	8cccJ 8aa- 8ee- 8cc\	.	8AA-/	.	ka-	.	Ce-	.	.	8A-/	.	ka-	.	Ce-	.	.	8cc 8e-/	ka-	ka-	Ce-	Ce-	.	.
8GGL 8GGG/	8bb-L 8ee- 8b-\	.	8GG/	.	-pła-	.	-sa-	.	.	8B-\	.	-pła-	.	-sa-	.	.	8b- 8e-/	-pła-	-pła-	-sza-	-sa-	.	.
8AA-J 8AAA-/	8aa-J 8ee- 8cc 8a-\	.	8AA-/	.	-nem	.	-rzu	.	.	8c\	.	-nem	.	-rzu	.	.	8a- 8e-/	-nem	-nem	-rzu	-rzu	.	.
=48	=48	=48	=48	=48	=48	=48	=48	=48	=48	=48	=48	=48	=48	=48	=48	=48	=48	=48	=48	=48	=48	=48	=48
*	*	*	*	*	*	*	*	*	*	*	*	*	*	*	*	*	*^	*	*	*	*	*	*
4BB- 4BBB-/	8ggL 8ee- 8b- 8g\	.	8BB-/	.	zmar-	.	wszech-	.	.	8B-/	.	zmar-	.	wszech-	.	.	8g 8e-/	2ryy	Zmar-	zmar-	wszech-	wszech-	.	.
.	8bb-J 8b-\	.	8BB-/	.	-twych-	.	-po-	.	.	8G/	.	-twych-	.	-po-	.	.	8b- 8e-/	.	-twych-	-twych-	-po-	-po-	.	.
8r	4ff 4dd 4a- 4f/	.	4BB-/	.	-wsta-	.	-tęż-	.	.	4A-/	.	-wsta-	.	-tęż-	.	.	4f 4d/	.	-wsta-	-wsta-	-tęż-	-tęż-	.	.
8BB- 8BBB-/	.	.	.	.	.	.	.	.	.	.	.	.	.	.	.	.	.	.	.	.	.	.	.	.
!LO:TX:i:b:t=nl. Coda:mod=	!	!	!	!	!	!	!	!	!	!	!	!	!	!	!	!	!LO:TX:a:i:t=nl. Coda:mod=	!	!	!	!	!	!	!
8E- 8EE-/	8ee- 8b- 8g 8e-/	.	8E-\	.	-nia!	.	-ny!	.	.	8G/	.	-nia!	.	-ny!	.	.	8e-/	8e-\	-nia	-nia!	-ny!	-ny!	.	.
8r	8r	.	8r	.	.	.	.	.	.	8r	.	.	.	.	.	.	8r	8rcyy	.	.	.	.	.	.
*	*	*	*	*	*	*	*	*	*	*	*	*	*	*	*	*	*v	*v	*	*	*	*	*	*
!LO:TX:b:t=[coda]	!	!	!	!	!	!	!	!	!	!	!	!	!	!	!	!	!LO:TX:a:t=[coda]	!	!	!	!	!	!
=49!|:	=49!|:	=49!|:	=49!|:	=49!|:	=49!|:	=49!|:	=49!|:	=49!|:	=49!|:	=49!|:	=49!|:	=49!|:	=49!|:	=49!|:	=49!|:	=49!|:	=49!|:	=49!|:	=49!|:	=49!|:	=49!|:	=49!|:	=49!|:
*>B	*>B	*	*>B	*	*	*	*	*	*	*>B	*	*	*	*	*	*	*>B	*	*	*	*	*	*
*k[b-e-a-d-]	*k[b-e-a-d-]	*	*k[b-e-a-d-]	*	*	*	*	*	*	*k[b-e-a-d-]	*	*	*	*	*	*	*k[b-e-a-d-]	*	*	*	*	*	*
*A-:	*A-:	*	*A-:	*	*	*	*	*	*	*A-:	*	*	*	*	*	*	*A-:	*	*	*	*	*	*
*	*	*	*	*	*	*	*	*	*	*	*	*	*	*	*	*	*^	*	*	*	*	*	*
!	!LO:TX:a:B:t=Trio	!	!	!	!	!	!	!	!	!	!	!	!	!	!	!	!LO:TX:a:B:t=Trio	!	!	!	!	!	!	!
4.E-\	4.e-/	mf	2.r	.	.	.	.	.	.	2.r	.	.	.	.	.	.	2.r	2.r	.	.	.	.	.	.
16E-\LL	16e-/LL	>	.	.	.	.	.	.	.	.	.	.	.	.	.	.	.	.	.	.	.	.	.	.
16E-\JJ	16e-/JJ	.	.	.	.	.	.	.	.	.	.	.	.	.	.	.	.	.	.	.	.	.	.	.
8E-\L	8e-/L	.	.	.	.	.	.	.	.	.	.	.	.	.	.	.	.	.	.	.	.	.	.	.
16E-L 16BB-\	16fL 16d- 16A-/	.	.	.	.	.	.	.	.	.	.	.	.	.	.	.	.	.	.	.	.	.	.	.
!	!	!LO:MO:null:mod=]]	!	!	!	!	!	!	!	!	!	!	!	!	!	!	!	!	!	!	!	!	!	!
16E-JJ 16BB-\	16fJJ 16d- 16A-/	.	.	.	.	.	.	.	.	.	.	.	.	.	.	.	.	.	.	.	.	.	.	.
=50	=50	=50	=50	=50	=50	=50	=50	=50	=50	=50	=50	=50	=50	=50	=50	=50	=50	=50	=50	=50	=50	=50	=50	=50
!	!	!LO:MO:mod=.	!	!	!	!	!	!	!	!	!	!	!	!	!	!	!	!	!	!	!	!	!	!
8E-L 8BB-/	8fL 8d- 8A-/	]	2.r	.	.	.	.	.	.	2.r	.	.	.	.	.	.	2.r	2.r	.	.	.	.	.	.
16E-L 16EE-/	16gL 16d- 16G/	.	.	.	.	.	.	.	.	.	.	.	.	.	.	.	.	.	.	.	.	.	.	.
16E-JJ 16EE-/	16gJJ 16d- 16G/	.	.	.	.	.	.	.	.	.	.	.	.	.	.	.	.	.	.	.	.	.	.	.
8E-L 8EE-/	8gL 8d- 8G/	.	.	.	.	.	.	.	.	.	.	.	.	.	.	.	.	.	.	.	.	.	.	.
16E-L 16BB-/	16fL 16d- 16A-/	.	.	.	.	.	.	.	.	.	.	.	.	.	.	.	.	.	.	.	.	.	.	.
16E-JJ 16BB-/	16fJJ 16d- 16A-/	.	.	.	.	.	.	.	.	.	.	.	.	.	.	.	.	.	.	.	.	.	.	.
8E-L 8BB-/	8fL 8d- 8A-/	.	.	.	.	.	.	.	.	.	.	.	.	.	.	.	.	.	.	.	.	.	.	.
8E-J 8EE-/	8e-J 8d- 8G/	.	.	.	.	.	.	.	.	.	.	.	.	.	.	.	.	.	.	.	.	.	.	.
!!LO:PB:g=original
=51	=51	=51	=51	=51	=51	=51	=51	=51	=51	=51	=51	=51	=51	=51	=51	=51	=51	=51	=51	=51	=51	=51	=51	=51
4.E-\	4.e-/	.	2.r	.	.	.	.	.	.	2.r	.	.	.	.	.	.	2.raa	2.rc	.	.	.	.	.	.
16E-\LL	16e-/LL	.	.	.	.	.	.	.	.	.	.	.	.	.	.	.	.	.	.	.	.	.	.	.
16E-\JJ	16e-/JJ	.	.	.	.	.	.	.	.	.	.	.	.	.	.	.	.	.	.	.	.	.	.	.
8E-\L	8e-/L	.	.	.	.	.	.	.	.	.	.	.	.	.	.	.	.	.	.	.	.	.	.	.
16E-L 16BB-\	16a-L 16f 16d- 16A-/	.	.	.	.	.	.	.	.	.	.	.	.	.	.	.	.	.	.	.	.	.	.	.
16E-JJ 16BB-\	16a-JJ 16f 16d- 16A-/	.	.	.	.	.	.	.	.	.	.	.	.	.	.	.	.	.	.	.	.	.	.	.
=52	=52	=52	=52	=52	=52	=52	=52	=52	=52	=52	=52	=52	=52	=52	=52	=52	=52	=52	=52	=52	=52	=52	=52	=52
8E-L 8BB-/	8a-L 8f 8d- 8A-/	.	2.r	.	.	.	.	.	.	2.r	.	.	.	.	.	.	2.raa	2.rc	.	.	.	.	.	.
16E-L 16EE-/	16b-L 16g 16d- 16B-/	.	.	.	.	.	.	.	.	.	.	.	.	.	.	.	.	.	.	.	.	.	.	.
16E-JJ 16EE-/	16b-JJ 16g 16d- 16B-/	.	.	.	.	.	.	.	.	.	.	.	.	.	.	.	.	.	.	.	.	.	.	.
8E-L 8EE-/	8b-L 8g 8d- 8B-/	.	.	.	.	.	.	.	.	.	.	.	.	.	.	.	.	.	.	.	.	.	.	.
16E-L 16BB-/	16a-L 16f 16d- 16A-/	.	.	.	.	.	.	.	.	.	.	.	.	.	.	.	.	.	.	.	.	.	.	.
16E-JJ 16BB-/	16a-JJ 16f 16d- 16A-/	.	.	.	.	.	.	.	.	.	.	.	.	.	.	.	.	.	.	.	.	.	.	.
8E-L 8BB-/	8a-L 8f 8d- 8A-/	.	.	.	.	.	.	.	.	.	.	.	.	.	.	.	.	.	.	.	.	.	.	.
8E-J 8EE-/	8gJ 8e- 8d- 8G/	.	.	.	.	.	.	.	.	.	.	.	.	.	.	.	.	.	.	.	.	.	.	.
=53	=53	=53	=53	=53	=53	=53	=53	=53	=53	=53	=53	=53	=53	=53	=53	=53	=53	=53	=53	=53	=53	=53	=53	=53
*	*^	*	*	*	*	*	*	*	*	*	*	*	*	*	*	*	*	*	*	*	*	*	*	*
!	!	!	!LO:DY:rj	!	!	!	!	!	!LO:DY:b:rj	!LO:DY:b:rj	!	!	!	!	!	!LO:DY:b:rj	!LO:DY:b:rj	!	!	!	!	!	!	!LO:DY:b:rj	!LO:DY:b:rj
4AA- 4AAA-/	(>8a-/L	8e- 8c\	p	8A-\	.	2. Sła-	.	.	p	p	8A-/	.	2. Sła-	.	.	p	p	8a-/	8a-\	2. Sła-	2. Sła-	.	.	p	p
.	8g/J	8rB	.	8G\	.	-wa	.	.	.	.	8G/	.	-wa	.	.	.	.	8g/	8g\	-wa	-wa	.	.	.	.
4C 4CC/	4.a-/	8e- 8A-\	.	4.A-\	.	To-	.	.	.	.	4.A-/	.	To-	.	.	.	.	4.a-/	4.a-\	To-	To-	.	.	.	.
.	.	8rB	.	.	.	.	.	.	.	.	.	.	.	.	.	.	.	.	.	.	.	.	.	.	.
4D- 4DD-/	.	8d- 8A-\	.	.	.	.	.	.	.	.	.	.	.	.	.	.	.	.	.	.	.	.	.	.	.
.	8f/	8rB	.	8F\	.	-bie!	.	.	.	.	8F/	.	-bie!	.	.	.	.	8f/	8f\	-bie!	-bie!	.	.	.	.
=54	=54	=54	=54	=54	=54	=54	=54	=54	=54	=54	=54	=54	=54	=54	=54	=54	=54	=54	=54	=54	=54	=54	=54	=54	=54
4GG 4GGG/	8g/L	8d- 8B-\	.	8G\	.	Boś	.	.	.	.	8G/	.	Boś	.	.	.	.	8g/	8g\	boś	Boś	.	.	.	.
.	8f/J	8rB	.	8F\	.	u-	.	.	.	.	8F/	.	u-	.	.	.	.	8f/	8f\	u-	u-	.	.	.	.
4BB- 4BBB-/	4.g/	8d- 8G\	.	4.G\	.	-ko-	.	.	.	.	4.G/	.	-ko-	.	.	.	.	4.g/	4.g\	-ko-	-ko-	.	.	.	.
.	.	8rc	.	.	.	.	.	.	.	.	.	.	.	.	.	.	.	.	.	.	.	.	.	.	.
4C 4CC/	.	8c 8G\	.	.	.	.	.	.	.	.	.	.	.	.	.	.	.	.	.	.	.	.	.	.	.
.	8e-/)	8rA	.	8E-\	.	-chał	.	.	.	.	8E-/	.	-chał	.	.	.	.	8e-/	8e-\	-chał	-chał	.	.	.	.
!!LO:LB:g=original
=55	=55	=55	=55	=55	=55	=55	=55	=55	=55	=55	=55	=55	=55	=55	=55	=55	=55	=55	=55	=55	=55	=55	=55	=55	=55
4D- 4DD-/	(>8d-/L	8A- 8F\	.	8D-/	.	w_Twem	.	.	.	.	8D-/	.	w_Twem	.	.	.	.	8d-/	8d-\	W_Twem	w_Twem	.	.	.	.
.	8c/	8r	.	8C/	.	dzie-	.	.	.	.	8C/	.	dzie-	.	.	.	.	8c/	8c\	dzie-	dzie-	.	.	.	.
4BB- 4BBB-/	8d-/	8B- 8F\	.	8D-/	.	-dzic-	.	.	.	.	8D-/	.	-dzic-	.	.	.	.	8d-/	8d-\	-dzic-	-dzic-	.	.	.	.
.	8e-/	8r	.	8E-\	.	-twie	.	.	.	.	8E-/	.	-twie	.	.	.	.	8e-/	8e-\	-twie	-twie	.	.	.	.
4AA- 4AAA-/	8f/	8d- 8B-\	.	8F\	.	wszyst-	.	.	.	.	8F/	.	wszyst-	.	.	.	.	8f/	8f\	wszyst-	wszyst-	.	.	.	.
.	8a-/J	8r	.	8A-\	.	-kie	.	.	.	.	8A-/	.	-kie	.	.	.	.	8a-/	8a-\	-kie	-kie	.	.	.	.
*	*	*	*	*	*	*	*	*	*	*	*	*	*	*	*	*	*	*v	*v	*	*	*	*	*	*
=56	=56	=56	=56	=56	=56	=56	=56	=56	=56	=56	=56	=56	=56	=56	=56	=56	=56	=56	=56	=56	=56	=56	=56	=56
4GG 4GGG/	8cc/L	8e- 8d-\	.	(>8c\L	.	lu-	.	.	.	.	(>8c\L	.	lu-	.	.	.	.	(>8cc\L	lu-	lu-	.	.	.	.
.	8b-/J	8r	.	8B-\J	.	.	.	.	.	.	8B-\J	.	.	.	.	.	.	8b-\J	.	.	.	.	.	.
4EE- 4EEE-/	4dd-/	4g 4d-\	.	4d-\)	.	.	.	.	.	.	4d-\)	.	.	.	.	.	.	4dd-\)	.	.	.	.	.	.
4AA- 4AAA-/	4cc/)	4a- 4e-\	.	4c\	.	-dy;	.	.	.	.	4c\	.	-dy;	.	.	.	.	4cc\	-dy;	-dy;	.	.	.	.
=57	=57	=57	=57	=57	=57	=57	=57	=57	=57	=57	=57	=57	=57	=57	=57	=57	=57	=57	=57	=57	=57	=57	=57	=57
*	*	*	*	*	*	*	*	*	*	*	*	*	*	*	*	*	*	*^	*	*	*	*	*	*
4D- 4DD-/	(>8b-/L	8f 8B-\	.	8B-\	.	Dla	.	.	.	.	8B-/	.	Dla	.	.	.	.	8b-/	8b-\	Dla	Dla	.	.	.	.
.	8a-/J	8r	.	8A-\	.	o-	.	.	.	.	8A-/	.	o-	.	.	.	.	8a-/	8a-\	o-	o-	.	.	.	.
4GG 4GGG/	4.b-/	8f 8d-\	.	4.B-\	.	-świa-	.	.	.	.	4.B-/	.	-świa-	.	.	.	.	4.b-/	4.b-\	-świa-	-świa-	.	.	.	.
.	.	8r	.	.	.	.	.	.	.	.	.	.	.	.	.	.	.	.	.	.	.	.	.	.	.
4C 4CC/	.	8en 8B-\	.	.	.	.	.	.	.	.	.	.	.	.	.	.	.	.	.	.	.	.	.	.	.
.	8g/	8r	.	8G\	.	-ty	.	.	.	.	8G/	.	-ty	.	.	.	.	8g/	8g\	-ty	-ty	.	.	.	.
=58	=58	=58	=58	=58	=58	=58	=58	=58	=58	=58	=58	=58	=58	=58	=58	=58	=58	=58	=58	=58	=58	=58	=58	=58	=58
4FF 4FFF/	8a-/L	8f 8A-\	.	8A-\	.	Swych	.	.	.	.	8A-/	.	Swych	.	.	.	.	8a-/	8a-\	Swych	Swych	.	.	.	.
.	8f/J	8rc	.	8F\	.	pod-	.	.	.	.	8F/	.	pod-	.	.	.	.	8f/	8f\	pod-	pod-	.	.	.	.
4AA- 4AAA-/	4cc/	8f 8c\	.	4c\	.	-da-	.	.	.	.	4c\	.	-da-	.	.	.	.	4cc/	4cc\	-da-	-da-	.	.	.	.
.	.	8rc	.	.	.	.	.	.	.	.	.	.	.	.	.	.	.	.	.	.	.	.	.	.	.
!	!	!	!	!	!	!	!	!	!	!	!	!	!	!	!	!	!	!LO:SIC:s=(8b-/L	!LO:SIC:s=(8b-/L	!	!	!	!	!	!
4F 4FF/	8b-/L	8f 8c\	.	(>8B-\L	.	-nych	.	.	.	.	(<8B-/L	.	-nych	.	.	.	.	8b-/L	8b-\L	-nych	-nych	.	.	.	.
!	!	!	!	!	!	!	!	!	!	!	!	!	!	!	!	!	!	!LO:SIC:s=8a-/J)	!LO:SIC:s=8a-/J)	!	!	!	!	!	!
.	8a-/J)	8rc	.	8A-\J)	.	.	.	.	.	.	8A-/J)	.	.	.	.	.	.	8a-/J	8a-\J	.	.	.	.	.	.
!!LO:LB:g=original
=59	=59	=59	=59	=59	=59	=59	=59	=59	=59	=59	=59	=59	=59	=59	=59	=59	=59	=59	=59	=59	=59	=59	=59	=59	=59
4E- 4EE-/	(>8g/L	8c 8G\	.	8G\	.	zno-	.	.	.	.	8G/	.	zno-	.	.	.	.	8g/	8g\	Zno-	zno-	.	.	.	.
.	8a-/	8rc	.	8A-\	.	-sisz	.	.	.	.	8A-/	.	-sisz	.	.	.	.	8a-/	8a-\	-sisz	-sisz	.	.	.	.
4D- 4DD-/	8g/	8d- 8A-\	.	8G\	.	chęt-	.	.	.	.	8G/	.	chęt-	.	.	.	.	8g/	8g\	chęt-	chęt-	.	.	.	.
.	8f/	8rc	.	8F\	.	-nie	.	.	.	.	8F/	.	-nie	.	.	.	.	8f/	8f\	-nie	-nie	.	.	.	.
4C 4CC/	8a-/	8e- 8A-\	.	8A-\	.	wszel-	.	.	.	.	8A-/	.	wszel-	.	.	.	.	8a-/	8a-\	wszel-	wszel-	.	.	.	.
.	8g/J	8rc	.	8G\	.	-kie	.	.	.	.	8G/	.	-kie	.	.	.	.	8g/	8g\	-kie	-kie	.	.	.	.
*	*v	*v	*	*	*	*	*	*	*	*	*	*	*	*	*	*	*	*	*	*	*	*	*	*	*
=60	=60	=60	=60	=60	=60	=60	=60	=60	=60	=60	=60	=60	=60	=60	=60	=60	=60	=60	=60	=60	=60	=60	=60	=60
!	!	!	!	!	!	!	!	!	!	!	!	!	!	!	!	!	!	!LO:SIC:s=(4f\	!	!	!	!	!	!
4AA- 4AAA-/	4f 4c/	>	(>4F\	.	tru-	.	.	.	.	(<4F/	.	tru-	.	.	.	.	(<4f/	4f\	tru-	tru-	.	.	.	.
!	!	!	!	!	!	!	!	!LO:HP:b	!	!	!	!	!	!	!LO:HP:b	!	!	!LO:SIC:s=4f-\)	!	!	!	!	!LO:HP:a	!LO:HP:a
4BB- 4BBB-/	4f-X 4d- 4A-/	.	4F-X\)	.	.	.	.	>	>	4F-X/)	.	.	.	.	>	>	4f-X/)	4f-\	.	.	.	.	>	>
4E- 4EE-/	4e- 4d- 4G/)	]]	4E-\	.	-dy.	.	.	]	]	4E-/	.	-dy.	.	.	]	]	4e-/	4e-\	-dy.	-dy.	.	.	]	]
=61	=61	=61	=61	=61	=61	=61	=61	=61	=61	=61	=61	=61	=61	=61	=61	=61	=61	=61	=61	=61	=61	=61	=61	=61
*	*^	*	*	*	*	*	*	*	*	*	*	*	*	*	*	*	*	*	*	*	*	*	*	*
!	!	!	!LO:DY:rj	!	!	!	!	!	!LO:DY:b:rj	!LO:DY:b:rj	!	!	!	!	!	!LO:DY:b:rj	!LO:DY:b:rj	!	!	!	!	!	!	!LO:DY:a:rj	!LO:DY:a:rj
4AA- 4AAA-/	(>8a-/L	8e- 8c\	pp	8A-\	.	W_Two-	.	.	pp	pp	8A-/	.	W_Two-	.	.	pp	pp	8a-/	8a-\	W_Two-	W_Two-	.	.	pp	pp
.	8g/J	8rc	.	8G\	.	-ich	.	.	.	.	8G/	.	-ich	.	.	.	.	8g/	8g\	-ich	-ich	.	.	.	.
4C 4CC/	4.a-/	8e- 8A-\	.	4.A-\	.	czy-	.	.	.	.	4.A-/	.	czy-	.	.	.	.	4.a-/	4.a-\	czy-	czy-	.	.	.	.
.	.	8rc	.	.	.	.	.	.	.	.	.	.	.	.	.	.	.	.	.	.	.	.	.	.	.
4D- 4DD-/	.	8d- 8A-\	.	.	.	.	.	.	.	.	.	.	.	.	.	.	.	.	.	.	.	.	.	.	.
.	8f/	8rc	.	8F\	.	-nach	.	.	.	.	8F/	.	-nach	.	.	.	.	8f/	8f\	-nach	-nach	.	.	.	.
=62	=62	=62	=62	=62	=62	=62	=62	=62	=62	=62	=62	=62	=62	=62	=62	=62	=62	=62	=62	=62	=62	=62	=62	=62	=62
4GG-X 4GGG-X/	8g-X/L	8d- 8B-\	.	8G-X\	.	znak	.	.	.	.	8G-X/	.	znak	.	.	.	.	8g-X/	8g-\	znak	znak	.	.	.	.
.	8fn/J	8r	.	8Fn\	.	do-	.	.	.	.	8Fn/	.	do-	.	.	.	.	8fn/	8fn\	do-	do-	.	.	.	.
4BB- 4BBB-/	4g-/	8d- 8G-X\	.	4G-\	.	-bro-	.	.	.	.	4G-/	.	-bro-	.	.	.	.	4g-/	4g-\	-bro-	-bro-	.	.	.	.
.	.	8r	.	.	.	.	.	.	.	.	.	.	.	.	.	.	.	.	.	.	.	.	.	.	.
4C-X 4CC-X/	8e-/L	8c-X 8G-\	.	8E-\	.	-ci	.	.	.	.	8E-/	.	-ci	.	.	.	.	8e-/	8e-\	-ci	-ci	.	.	.	.
.	8e-/J)	8r	.	8E-\	.	i	.	.	.	.	8E-/	.	i	.	.	.	.	8e-/	8e-\	I	i	.	.	.	.
!!LO:LB:g=original
=63	=63	=63	=63	=63	=63	=63	=63	=63	=63	=63	=63	=63	=63	=63	=63	=63	=63	=63	=63	=63	=63	=63	=63	=63	=63
4FF-X 4FFF-X/	(>8f-X/L	8c-X 8A-\	.	(>8F-X\L	.	łask	.	.	.	.	(<8F-X/L	.	łask	.	.	.	.	(>8f-X/L	(<8f-\L	łask	łask	.	.	.	.
.	8e-/J	8r	.	8E-\J)	.	.	.	.	.	.	8E-/J)	.	.	.	.	.	.	8e-/J)	8e-\J)	.	.	.	.	.	.
!	!	!	!	!	!	!	!	!	!LO:HP:b:t=crescendo	!	!	!	!	!	!	!LO:HP:b:t=crescendo	!	!	!	!	!	!	!	!LO:HP:t=crescendo	!
4AA- 4AAA-/	8f-/L	8c- 8F-X\	.	8F-\	.	do-	.	.	<	<	8F-/	.	do-	.	.	<	<	8f-/	8f-\	do-	do-	.	.	<	<
!	!	!	!LO:MO:mod=!null:null	!	!	!	!	!	!	!	!	!	!	!	!	!	!	!	!	!	!	!	!	!	!
!	!	!	!LO:HP:t=crescendo	!	!	!	!	!	!	!	!	!	!	!	!	!	!	!	!	!	!	!	!	!	!
.	8g-X/J	8r	<	8G-X\	.	-wód	.	.	.	.	8G-X/	.	-wód	.	.	.	.	8g-X/	8g-\	-wód	-wód	.	.	.	.
4FF- 4FFF-/	8a-/L	8f-X 8c-\	.	8A-\	.	nie-	.	.	.	.	8A-/	.	nie-	.	.	.	.	8a-/	8a-\	nie-	nie-	.	.	.	.
.	8cc-X/J	8r	.	8A-\	.	-prze-	.	.	.	.	8c-X\	.	-prze-	.	.	.	.	8cc-X 8a-/	8ryy	-prze-	-prze-	.	.	.	.
=64	=64	=64	=64	=64	=64	=64	=64	=64	=64	=64	=64	=64	=64	=64	=64	=64	=64	=64	=64	=64	=64	=64	=64	=64	=64
4GG-X 4GGG-X/	8ee-/L	4b- 4f-X\	.	2G-X\	.	-bra-	.	.	.	.	(>4B-\	.	-bra-	.	.	.	.	(>8ee-/L	(<4f-X\	-bra-	-bra-	.	.	.	.
.	8dd-/J	.	.	.	.	.	.	.	.	.	.	.	.	.	.	.	.	8dd-/J	.	.	.	.	.	.	.
4G-X 4GG-/	4ff-X/)	4dd- 4b- 4f-X\	.	.	.	.	.	.	.	.	4d-\)	.	.	.	.	.	.	4ff-X/)	4b-\)	.	.	.	.	.	.
4Gn 4GGn/	8ee-/L	4b- 4e-\	.	4Gn\	.	-ny.	.	.	.	.	4e-\	.	-ny.	.	.	.	.	(<8ee-/L	4b-\	-ny	-ny.	.	.	.	.
.	8dd-/J	.	.	.	.	.	.	.	.	.	.	.	.	.	.	.	.	8dd-/J)	.	.	.	.	.	.	.
*	*v	*v	*	*	*	*	*	*	*	*	*	*	*	*	*	*	*	*v	*v	*	*	*	*	*	*
=65	=65	=65	=65	=65	=65	=65	=65	=65	=65	=65	=65	=65	=65	=65	=65	=65	=65	=65	=65	=65	=65	=65	=65
!	!	!LO:DY:rj	!	!	!	!	!	!LO:DY:b:rj	!LO:DY:b:rj	!	!	!	!	!	!LO:DY:b:rj	!LO:DY:b:rj	!	!	!	!	!	!LO:DY:b:rj	!LO:DY:b:rj
8A-L 8AA-/	8dd-L 8a- 8e-/	f	8A-\	.	Sła-	.	.	f	f	8e-\	.	Sła-	.	.	f	f	8dd- 8a-/	Sła-	Sła-	.	.	f	f
8A-J 8AA-/	8ccnJ 8a- 8e-/	.	8A-\	.	-wa	.	.	.	.	8e-\	.	-wa	.	.	.	.	8ccn 8a-/	-wa	-wa	.	.	.	.
4.D- 4.DD-/	4.ffn 4.a- 4.fn/	.	4.D-\	.	To-	.	.	.	.	4.d-\	.	To-	.	.	.	.	4.ffn 4.a-/	To-	To-	.	.	.	.
8C 8CC/	8ee- 8a- 8e-/	.	8C/	.	-bie!	.	.	.	.	8e-\	.	-bie!	.	.	.	.	8ee- 8a-/	-bie!	-bie!	.	.	.	.
=66	=66	=66	=66	=66	=66	=66	=66	=66	=66	=66	=66	=66	=66	=66	=66	=66	=66	=66	=66	=66	=66	=66	=66
8FL 8FF/	8dd-L 8a- 8d-/	.	8F\	.	Dzię-	.	.	.	.	8A-/	.	Dzię-	.	.	.	.	8dd- 8a-/	dzię-	Dzię-	.	.	.	.
8E-J 8EE-/	8ccJ 8a- 8e-/	.	8E-\	.	-ki	.	.	.	.	8A-/	.	-ki	.	.	.	.	8cc 8a-/	-ki	-ki	.	.	.	.
4.D- 4.DD-/	4.ff 4.a- 4.f/	.	4.D-\	.	To-	.	.	.	.	4.A-/	.	To-	.	.	.	.	4.ff 4.f/	To-	To-	.	.	.	.
8C 8CC/	8ee- 8a- 8e-/	.	8C/	.	-bie!	.	.	.	.	8A-/	.	-bie!	.	.	.	.	8ee- 8a-/	-bie!	-bie!	.	.	.	.
!!LO:PB:g=original
=67	=67	=67	=67	=67	=67	=67	=67	=67	=67	=67	=67	=67	=67	=67	=67	=67	=67	=67	=67	=67	=67	=67	=67
*	*^	*	*	*	*	*	*	*	*	*	*	*	*	*	*	*	*	*	*	*	*	*	*
!	!	!	!LO:DY:rj	!	!	!	!	!	!LO:DY:b	!LO:DY:b	!	!	!	!	!	!LO:DY:b	!LO:DY:b	!	!	!	!	!	!LO:DY:a	!LO:DY:a
2BB- 2BBB-/	8f/L	2d- 2A-\	mf	8BB-/	.	Nam	.	.	mf	mf	8A-/	.	Nam	.	.	mf	mf	8f 8d-/	Nam	Nam	.	.	mf	mf
!	!	!	!	!	!	!	!	!	!LO:HP:b	!	!	!	!	!	!	!LO:HP:b	!	!	!	!	!	!	!LO:DY:a	!LO:DY:a
.	8a-/	.	.	8BB-/	.	Ce-	.	.	>	>	8F/	.	Ce-	.	.	>	>	8a- 8d-/	Ce-	Ce-	.	.	>	>
.	8f/	.	>	8BB-/	.	-sa-	.	.	.	.	8A-/	.	-sa-	.	.	.	.	8f 8d-/	-sa-	-sa-	.	.	.	.
.	8dd-/J	.	.	8BB-/	.	-rzu	.	.	.	.	8A-/	.	-rzu	.	.	.	.	8dd- 8d-/	-rzu	-rzu	.	.	.	.
8.E-L 8.EE-/	8.gL 8.d-/	4rcyy	.	8.E-\	.	u-	.	.	.	.	8.B-/	.	u-	.	.	.	.	8.g 8.d-/	u-	u-	.	.	.	.
16E-Jk 16EE-/	16ccJk 16g 16d-/	.	]	16E-\	.	-ko-	.	.	]	]	16G/	.	-ko-	.	.	]	]	16cc 16d-/	-ko-	-ko-	.	.	]	]
*	*v	*v	*	*	*	*	*	*	*	*	*	*	*	*	*	*	*	*	*	*	*	*	*	*
=68	=68	=68	=68	=68	=68	=68	=68	=68	=68	=68	=68	=68	=68	=68	=68	=68	=68	=68	=68	=68	=68	=68	=68
!	!	!LO:DY:rj	!	!	!	!	!	!LO:DY:b:rj	!LO:DY:b:rj	!	!	!	!	!	!LO:DY:b:rj	!LO:DY:b:rj	!	!	!	!	!	!LO:DY:a:rj	!LO:DY:a:rj
2AA- 2AAA-/	4b- 4g 4d-/	p	4AA-/	.	-cha-	.	.	p	p	4G/	.	-cha-	.	.	p	p	4b- 4d-/	-cha-	-cha-	.	.	p	p
.	4a- 4c/	.	4AA-/	.	-ny!	.	.	.	.	4A-/	.	-ny!	.	.	.	.	4a- 4c/	-ny!	-ny!	.	.	.	.
4r	4r	.	4r	.	.	.	.	.	.	4r	.	.	.	.	.	.	4r	.	.	.	.	.	.
!LO:TX:b:i:rj:t=Powtórzyć od początku do Tria\ni potem Coda:mod=D.S. [segno] al [coda]\ne poi la Coda	!	!	!	!	!	!	!	!	!	!	!	!	!	!	!	!	!LO:TX:a:i:rj:t= :mod=D.S. [segno] al [coda]\ne poi la Coda	!	!	!	!	!	!
!!LO:LB:g=original
=69:|!	=69:|!	=69:|!	=69:|!	=69:|!	=69:|!	=69:|!	=69:|!	=69:|!	=69:|!	=69:|!	=69:|!	=69:|!	=69:|!	=69:|!	=69:|!	=69:|!	=69:|!	=69:|!	=69:|!	=69:|!	=69:|!	=69:|!	=69:|!
*>C	*>C	*	*>C	*	*	*	*	*	*	*>C	*	*	*	*	*	*	*>C	*	*	*	*	*	*
*k[b-e-a-]	*k[b-e-a-]	*	*k[b-e-a-]	*	*	*	*	*	*	*k[b-e-a-]	*	*	*	*	*	*	*k[b-e-a-]	*	*	*	*	*	*
*E-:	*E-:	*	*E-:	*	*	*	*	*	*	*E-:	*	*	*	*	*	*	*E-:	*	*	*	*	*	*
!	!LO:TX:B:t=Coda	!LO:DY:rj	!	!	!	!	!	!	!	!	!	!	!	!	!	!	!LO:TX:a:B:t=Coda	!	!	!	!	!	!
8.GGL 8.GGG\	8.ggL 8.dd 8.bn 8.g\	ff	4r	.	.	.	.	.	.	4r	.	.	.	.	.	.	4r	.	.	.	.	.	.
16BnJk 16G\	16ddJk 16b 16g 16d\	.	.	.	.	.	.	.	.	.	.	.	.	.	.	.	.	.	.	.	.	.	.
8.BL 8.G\	8.ddL 8.b 8.g 8.d\	.	4r	.	.	.	.	.	.	4r	.	.	.	.	.	.	4r	.	.	.	.	.	.
16dJk 16B 16G\	16ggJk 16dd 16b 16g\	.	.	.	.	.	.	.	.	.	.	.	.	.	.	.	.	.	.	.	.	.	.
!	!	!	!	!	!	!	!	!LO:DY:b:rj	!LO:DY:b:rj	!	!	!	!	!	!LO:DY:b:rj	!LO:DY:b:rj	!	!	!	!	!	!LO:DY:a:rj	!LO:DY:a:rj
8.dL 8.B 8.G\	8.ggL 8.dd 8.b 8.g\	.	8.G\	.	Sła-	.	.	ff	ff	8.d\	.	Sła-	.	.	ff	ff	8.bn 8.g/	Sła-	Sła-	.	.	ff	ff
16dJk 16B 16G\	16bbnJk 16gg 16dd 16b\	.	16G\	.	-wa	.	.	.	.	16d\	.	-wa	.	.	.	.	16b 16g/	-wa	-wa	.	.	.	.
=70	=70	=70	=70	=70	=70	=70	=70	=70	=70	=70	=70	=70	=70	=70	=70	=70	=70	=70	=70	=70	=70	=70	=70
8.dL 8.Bn 8.G\	8.bbnL 8.gg 8.dd 8.bn\	.	4G\	.	To-	.	.	.	.	4Bn\	.	To-	.	.	.	.	4dd 4g/	To-	To-	.	.	.	.
16dJk 16B 16G\	16dddJk 16bb 16gg 16dd\	.	.	.	.	.	.	.	.	.	.	.	.	.	.	.	.	.	.	.	.	.	.
!LO:TX:t=P:problem=mixed beam	!	!	!	!	!	!	!	!	!	!	!	!	!	!	!	!	!	!	!	!	!	!	!
8.dL 8.B 8.G\	8.dddL 8.bb 8.gg 8.dd\	.	4G\	.	-bie!	.	.	.	.	4d\	.	-bie!	.	.	.	.	4bn 4g/	-bie!	-bie!	.	.	.	.
16GGJk 16GGG/	16gggJk 16ddd 16bb 16gg\	.	.	.	.	.	.	.	.	.	.	.	.	.	.	.	.	.	.	.	.	.	.
8GG 8GGG/	8ggg 8ddd 8bb 8gg\	.	4r	.	.	.	.	.	.	4r	.	.	.	.	.	.	4r	.	.	.	.	.	.
8r	8r	.	.	.	.	.	.	.	.	.	.	.	.	.	.	.	.	.	.	.	.	.	.
=71	=71	=71	=71	=71	=71	=71	=71	=71	=71	=71	=71	=71	=71	=71	=71	=71	=71	=71	=71	=71	=71	=71	=71
8.CL 8.CC\	8.ggL 8.een 8.cc 8.g\	.	4r	.	.	.	.	.	.	4r	.	.	.	.	.	.	4r	.	.	.	.	.	.
16cJk 16G 16En\	16eeJk 16cc 16g 16en\	.	.	.	.	.	.	.	.	.	.	.	.	.	.	.	.	.	.	.	.	.	.
8.cL 8.G 8.E\	8.eeL 8.cc 8.g 8.e\	.	4r	.	.	.	.	.	.	4r	.	.	.	.	.	.	4r	.	.	.	.	.	.
16cJk 16G 16E\	16ggJk 16ee 16cc 16g\	.	.	.	.	.	.	.	.	.	.	.	.	.	.	.	.	.	.	.	.	.	.
8.cL 8.G 8.E\	8.ggL 8.ee 8.cc 8.g\	.	8.c\	.	Sła-	.	.	.	.	8.en\	.	Sła-	.	.	.	.	8.cc 8.g/	Sła-	Sła-	.	.	.	.
16cJk 16G 16E\	16cccJk 16gg 16ee 16cc\	.	16c\	.	-wa	.	.	.	.	16e\	.	-wa	.	.	.	.	16cc 16g/	-wa	-wa	.	.	.	.
=72	=72	=72	=72	=72	=72	=72	=72	=72	=72	=72	=72	=72	=72	=72	=72	=72	=72	=72	=72	=72	=72	=72	=72
8.cL 8.G 8.En\	8.cccL 8.gg 8.een 8.cc\	.	4C/	.	To-	.	.	.	.	4c\	.	To-	.	.	.	.	4een 4g/	To-	To-	.	.	.	.
16cJk 16G 16E\	16eeenJk 16ccc 16gg 16ee\	.	.	.	.	.	.	.	.	.	.	.	.	.	.	.	.	.	.	.	.	.	.
8.cL 8.G 8.E\	8.eeeL 8.ccc 8.gg 8.ee\	.	4C/	.	-bie!	.	.	.	.	4en\	.	-bie!	.	.	.	.	4cc 4g/	-bie!	-bie!	.	.	.	.
16CJk 16CC\	16gggJk 16eee 16ccc 16gg\	.	.	.	.	.	.	.	.	.	.	.	.	.	.	.	.	.	.	.	.	.	.
8C 8CC/	8ggg 8eee 8ccc 8gg\	.	4r	.	.	.	.	.	.	4r	.	.	.	.	.	.	4r	.	.	.	.	.	.
8r	8r	.	.	.	.	.	.	.	.	.	.	.	.	.	.	.	.	.	.	.	.	.	.
=73	=73	=73	=73	=73	=73	=73	=73	=73	=73	=73	=73	=73	=73	=73	=73	=73	=73	=73	=73	=73	=73	=73	=73
8.AA-L 8.AAA-\	8.aaa-L 8.eee-X 8.ccc 8.aa-\	.	4r	.	.	.	.	.	.	4r	.	.	.	.	.	.	4r	.	.	.	.	.	.
16cJk 16A- 16E-X\	16ccJk 16a- 16e-X\	.	.	.	.	.	.	.	.	.	.	.	.	.	.	.	.	.	.	.	.	.	.
8.cL 8.A- 8.E-\	8.ccL 8.a- 8.e-\	.	4r	.	.	.	.	.	.	4r	.	.	.	.	.	.	4r	.	.	.	.	.	.
16cJk 16A- 16E-\	16ee-XJk 16cc 16a- 16e-\	.	.	.	.	.	.	.	.	.	.	.	.	.	.	.	.	.	.	.	.	.	.
8.cL 8.A- 8.E-\	8.ee-L 8.cc 8.a- 8.e-\	.	8.A-\	.	Sła-	.	.	.	.	8.e-X\	.	Sła-	.	.	.	.	8.cc 8.a-/	Sła-	Sła-	.	.	.	.
16cJk 16A- 16E-\	16aa-Jk 16ee- 16cc 16a-\	.	16A-\	.	-wa	.	.	.	.	16e-\	.	-wa	.	.	.	.	16cc 16a-/	-wa	-wa	.	.	.	.
!!LO:LB:g=original
=74	=74	=74	=74	=74	=74	=74	=74	=74	=74	=74	=74	=74	=74	=74	=74	=74	=74	=74	=74	=74	=74	=74	=74
*	*	*	*	*	*	*	*	*	*	*	*	*	*	*	*	*	*^	*	*	*	*	*	*
8.cL 8.A- 8.E-\	8.aa-L 8.ee- 8.cc 8.a-\	.	2A-\	.	To-	.	.	.	.	(>4c\	.	To-	.	.	.	.	(>4ee-/	2a-\	To-	To-	.	.	.	.
16A-Jk 16E- 16C\	16cccJk 16aa- 16ee- 16cc\	.	.	.	.	.	.	.	.	.	.	.	.	.	.	.	.	.	.	.	.	.	.	.
8.A-L 8.E- 8.C\	8.cccL 8.aa- 8.ee- 8.cc\	.	.	.	.	.	.	.	.	4e-\)	.	.	.	.	.	.	4cc/)	.	.	.	.	.	.	.
16A-Jk 16E- 16AA-\	16eee-Jk 16ccc 16aa- 16ee-\	.	.	.	.	.	.	.	.	.	.	.	.	.	.	.	.	.	.	.	.	.	.	.
8.A-L 8.AA-/	8.eee-L 8.ccc 8.aa- 8.ee-\	.	4A-\	.	-bie,	.	.	.	.	4c\	.	-bie,	.	.	.	.	4ee-/	4a-\	-bie	-bie,	.	.	.	.
16AA-Jk 16AAA-/	16eee-Jk 16ccc 16aa- 16ee-\	.	.	.	.	.	.	.	.	.	.	.	.	.	.	.	.	.	.	.	.	.	.	.
=75	=75	=75	=75	=75	=75	=75	=75	=75	=75	=75	=75	=75	=75	=75	=75	=75	=75	=75	=75	=75	=75	=75	=75	=75
!LO:TX:t=P:problem=mixed beam	!	!	!	!	!	!	!	!	!	!	!	!	!	!	!	!	!	!	!	!	!	!	!	!
8.EE-L 8.EEE-/	8.gggL 8.eee- 8.bb- 8.gg\	.	[>2.E-\	.	sła-	.	.	.	.	[>2.e-\	.	sła-	.	.	.	.	[>2.gg/	[>2.b-\	Sła-	sła-	.	.	.	.
16e-Jk 16B- 16G\	16ggJk 16ee- 16b- 16g\	.	.	.	.	.	.	.	.	.	.	.	.	.	.	.	.	.	.	.	.	.	.	.
8.e-L 8.B- 8.G\	8.ggL 8.ee- 8.b- 8.g\	.	.	.	.	.	.	.	.	.	.	.	.	.	.	.	.	.	.	.	.	.	.	.
16e-Jk 16B- 16G\	16bb-Jk 16gg 16ee- 16b-\	.	.	.	.	.	.	.	.	.	.	.	.	.	.	.	.	.	.	.	.	.	.	.
!LO:TX:t=P:problem=mixed beam	!	!	!	!	!	!	!	!	!	!	!	!	!	!	!	!	!	!	!	!	!	!	!	!
8.e-L 8.B- 8.G\	8.bb-L 8.gg 8.ee- 8.b-\	.	.	.	.	.	.	.	.	.	.	.	.	.	.	.	.	.	.	.	.	.	.	.
16EE-Jk 16EEE-/	16eee-Jk 16bb- 16gg 16ee-\	.	.	.	.	.	.	.	.	.	.	.	.	.	.	.	.	.	.	.	.	.	.	.
*	*	*	*	*	*	*	*	*	*	*	*	*	*	*	*	*	*v	*v	*	*	*	*	*	*
=76	=76	=76	=76	=76	=76	=76	=76	=76	=76	=76	=76	=76	=76	=76	=76	=76	=76	=76	=76	=76	=76	=76	=76
!LO:TX:t=P:problem=mixed beam	!	!	!	!	!	!	!	!	!	!	!	!	!	!	!	!	!	!	!	!	!	!	!
8.EE-L 8.EEE-/	8.eee-L 8.bb- 8.gg 8.ee-\	.	2.E-\]	.	.	.	.	.	.	2.e-\]	.	.	.	.	.	.	2.gg] 2.b-\]	.	.	.	.	.	.
*	*8va	*	*	*	*	*	*	*	*	*	*	*	*	*	*	*	*	*	*	*	*	*	*
16e-Jk 16B- 16G\	16gggJk 16eee- 16bb- 16gg\	.	.	.	.	.	.	.	.	.	.	.	.	.	.	.	.	.	.	.	.	.	.
8.e-L 8.B- 8.G\	8.gggL 8.eee- 8.bb- 8.gg\	.	.	.	.	.	.	.	.	.	.	.	.	.	.	.	.	.	.	.	.	.	.
16e-Jk 16B- 16G\	16bbb-Jk 16ggg 16eee- 16bb-\	.	.	.	.	.	.	.	.	.	.	.	.	.	.	.	.	.	.	.	.	.	.
!LO:TX:t=P:problem=mixed beam	!	!	!	!	!	!	!	!	!	!	!	!	!	!	!	!	!	!	!	!	!	!	!
8.e-L 8.B- 8.G\	8.bbb-L 8.ggg 8.eee- 8.bb-\	.	.	.	.	.	.	.	.	.	.	.	.	.	.	.	.	.	.	.	.	.	.
16EE-Jk 16EEE-/	16eeee-Jk 16bbb- 16ggg 16eee-\	.	.	.	.	.	.	.	.	.	.	.	.	.	.	.	.	.	.	.	.	.	.
=77	=77	=77	=77	=77	=77	=77	=77	=77	=77	=77	=77	=77	=77	=77	=77	=77	=77	=77	=77	=77	=77	=77	=77
8EE- 8EEE-/	8eeee- 8bbb- 8ggg 8eee-\	.	[>2.E-\	.	-wa!	.	.	.	.	[>2.B-\	.	-wa!	.	.	.	.	[>2.ee- [<2.g/	-wa	-wa!	.	.	.	.
*	*X8va	*	*	*	*	*	*	*	*	*	*	*	*	*	*	*	*	*	*	*	*	*	*
8r	8r	.	.	.	.	.	.	.	.	.	.	.	.	.	.	.	.	.	.	.	.	.	.
4E- 4BB- 4EE-/	4e- 4B- 4G/	.	.	.	.	.	.	.	.	.	.	.	.	.	.	.	.	.	.	.	.	.	.
4E- 4BB- 4EE-/	4e- 4B- 4G/	.	.	.	.	.	.	.	.	.	.	.	.	.	.	.	.	.	.	.	.	.	.
=78	=78	=78	=78	=78	=78	=78	=78	=78	=78	=78	=78	=78	=78	=78	=78	=78	=78	=78	=78	=78	=78	=78	=78
2.EE- 2.EEE-;>/	2.e- 2.B- 2.G;>/	.	4E-\]	.	.	.	.	.	.	4B-\]	.	.	.	.	.	.	4ee-] 4g/]	.	.	.	.	.	.
.	.	.	4r	.	.	.	.	.	.	4r	.	.	.	.	.	.	4r	.	.	.	.	.	.
.	.	.	4r;>	.	.	.	.	.	.	4r;>	.	.	.	.	.	.	4r;>	.	.	.	.	.	.
==	==	==	==	==	==	==	==	==	==	==	==	==	==	==	==	==	==	==	==	==	==	==	==
*-	*-	*-	*-	*-	*-	*-	*-	*-	*-	*-	*-	*-	*-	*-	*-	*-	*-	*-	*-	*-	*-	*-	*-
!!!system-decoration: {{(s1,s2,s3)}{(s4,s5)}}
!!!system-decoration-mod: [(s1,s2,s3)]{(s4,s5)}
!!!RDF**kern: < = below
!!!RDF**kern: > = above
!!!filter-modern: sic -sq | shed -e "s/LO:DY:(a|b|rj)/LO:dy:$1/L" | autostem -r | tie -s | shed -k -e "s/[<>]//g" | shed -k -e "s/:TUP:/:tup:/L" | shed -e "s/N:vis=/N:VIS=/L" | shed -e "s/TX(.*):t=P:/tx$1:t=P:/LG" | shed -e "s/^(\d+[\/\\]right)/$1yy/I; s/^(\d+[\/\\]left)/$1yy/I" | modori -m
!!!ENC: Mateusz Solarz
!!!END: 2021-05-10
!!!ENC: Marta Chmielewska
!!!END: 2021-06-02
!!!ENC-modern: Katarzyna Serwa
!!!END-modern: 2022-09-02
!!!YEC: Copyright 2022 Narodowy Instytut Fryderyka Chopina (https://polishscores.org)
!!!YEM: License CC-BY-4.0 (https://creativecommons.org/licenses/by/4.0)
